!!!!SEGMENT: s-uu--vok-mus-i-hs-54-9_forster-kaspar--jesu-dulcis-memoria.krn
!!!cenid: 16xx:1693
!!!COM: Förster, Kaspar
!!!COM-rismID: pe30006147
!!!CDT: ~1616-1673/02/02
!!!CNT: German
!!!OTL: Jesu dulcis memoria
!!!PDT: 1690
!!!AGN:
!!!YEC: Copyright 2022 Narodowy Instytut Fryderyka Chopina (https://polishscores.org)
!!!YEM: License CC-BY-4.0 (https://creativecommons.org/licenses/by/4.0)
!!!SMS-siglum: S-Uu
!!!SMS-shelfmark: Vok. mus. i hs. 54:9
!!!SMS-shelfwork: W
!!!SMS-variant:
!!!SMS-altvar:
!!!NIFC-rismSourceID: 190008722
!!!NIFC-rismChildID: 190008722
!!!NIFC-islandoraID: none
!!!URL-pdf-islandora:
!!!URL-scan: https://www2.musik.uu.se/duben/presentationSource1.php?Select_Dnr=835 @EN{Scan on Academica} @PL{Skany w zewnętrznej bibliotece cyfrowej}
!!!IIIF:
!!!ONB-nifc: UWAGA: poszczególne partie dostępne po kliknięciu w „browse part”. Informacje nt stron tytułowych w opisie na stronie lub na RISM.
!!!AIN: 1 bass 2 violn
!!!key: c
**kern	**fba	**kern	**dynam	**kern	**dynam	**kern	**text	**dynam
*	*	*group1	*	*group1	*	*	*	*
*part4	*	*part3	*	*part2	*	*part1	*	*
*staff4	*	*staff3	*	*staff2	*	*staff1	*	*
*I"[Basso continuo]	*	*I"Violin [II]	*	*I"Violin [I]	*	*I"Baſso Solo.	*	*
*I'[bc]	*	*I'vl II	*	*I'vl I	*	*I'B	*	*
*I	*	*Ivioln	*	*Ivioln	*	*Ibass	*	*
*ICstr&ICklav	*	*ICstr	*	*ICstr	*	*ICvox	*	*
*IGcont	*	*	*	*	*	*	*	*
*clefF4	*	*clefG2	*	*clefG2	*	*clefF4	*	*
*k[b-]	*	*k[b-]	*	*k[b-]	*	*k[b-]	*	*
*c:	*	*c:	*	*c:	*	*c:	*	*
*M4/4	*	*M4/4	*	*M4/4	*	*M4/4	*	*
*met(c)	*	*met(c)	*	*met(c)	*	*met(c)	*	*
*met(C)	*	*met(C)	*	*met(C)	*	*met(C)	*	*
=1-	=1-	=1-	=1-	=1-	=1-	=1-	=1-	=1-
*	*	*2\right	*	*	*	*	*	*
!!LO:TX:a:t=P:problem:all\left, middle or righ:global
!!LO:TX:a:t=P:problem:oddech/cezura na różnej wysokości
!	!	!	!	!	!	!LO:TX:a:t=7.:mod=	!	!
8c\L	-	2.cc\	.	2ee-X\	.	00r	.	.
8B-\	.	.	.	.	.	.	.	.
8A-X\	.	.	.	.	.	.	.	.
8G\J	.	.	.	.	.	.	.	.
8F\L	6 5	.	.	2dd\	.	.	.	.
8G\	.	.	.	.	.	.	.	.
8A-X\	.	4cc\	.	.	.	.	.	.
8F\J	.	.	.	.	.	.	.	.
=2-	=2-	=2-	=2-	=2-	=2-	=2-	=2-	=2-
*	*	*	*	*2\right	*	*	*	*
4G\	4	4.cc\	.	2dd\	.	.	.	.
4GG/	3	.	.	.	.	.	.	.
!	!	!LO:N:acc=#	!	!	!	!	!	!
.	.	8bn/	.	.	.	.	.	.
4C/	-	8.cc\L	.	8ee-X\L	.	.	.	.
.	.	.	.	8ee-\	.	.	.	.
.	.	16cc\Jk	.	.	.	.	.	.
!LO:TX:t=P:problem:kreska pseudotaktowa	!	!	!	!	!	!	!	!
4D/	6	8.b/L	.	8.dd\	.	.	.	.
!	!	!LO:SIC:v:s=16a-/Jk	!	!	!	!	!	!
.	.	16a/Jk	.	16cc\Jk	.	.	.	.
=3-	=3-	=3-	=3-	=3-	=3-	=3-	=3-	=3-
!	!	!LO:TX:t=P:problem:mixed beam	!	!	!	!	!	!
4E-X\	.	8g/L	.	8b-\L	.	.	.	.
.	.	8gg\	.	8bb-\	.	.	.	.
!	!	!	!	!LO:SIC:v:s=8.aa-\	!	!	!	!
4A-X\	.	8.ff\	.	8.aa\	.	.	.	.
.	.	16ee-X\Jk	.	16gg\Jk	.	.	.	.
!LO:TX:t=P:problem:mixed beam	!	!	!	!	!	!	!	!
8B-\L	.	8.dd\L	.	8.ff\L	.	.	.	.
8D/J	6	.	.	.	.	.	.	.
.	.	16dd\K	.	16ff\K	.	.	.	.
4E-X\	.	8.cc\	.	8.ee-X\	.	.	.	.
.	.	16b-y\Jk	.	16dd\Jk	.	.	.	.
=4-	=4-	=4-	=4-	=4-	=4-	=4-	=4-	=4-
4F\	.	4a/	.	4cc\	.	.	.	.
4D/	.	8r	.	8r	.	.	.	.
.	.	8f/	.	8ff\	.	.	.	.
*2\right	*	*	*	*	*	*	*	*
2E-X\	.	8g/L	.	4.ee-X\	.	.	.	.
.	.	8a/J	.	.	.	.	.	.
.	.	2b-/	.	.	.	.	.	.
.	.	.	.	8gg\	.	.	.	.
=5-	=5-	=5-	=5-	=5-	=5-	=5-	=5-	=5-
2F\	4	.	.	4.cc\	.	0r	.	.
.	3	4a/	.	.	.	.	.	.
.	.	.	.	8cc\	.	.	.	.
4BB-/	.	8b-\L	.	8dd\L	.	.	.	.
.	.	8cc\	.	8ee-X\	.	.	.	.
4B-\	.	8dd\	.	8ff\	.	.	.	.
.	.	8ee-i\J	.	8gg\J	.	.	.	.
=6-	=6-	=6-	=6-	=6-	=6-	=6-	=6-	=6-
8F\L	-	2.ff\	.	2aa-X\	.	.	.	.
8G\	.	.	.	.	.	.	.	.
8A-i\	.	.	.	.	.	.	.	.
8B-\J	.	.	.	.	.	.	.	.
4.c\	4	.	.	4.gg\	.	.	.	.
.	3	4ee-X\	.	.	.	.	.	.
8E-X\	.	.	.	8gg\	.	.	.	.
=7-	=7-	=7-	=7-	=7-	=7-	=7-	=7-	=7-
8F\L	-	8dd\L	.	8ff\L	.	1r	.	.
8G\	.	8cc\J	.	8ee-X\	.	.	.	.
8A-Xi\	.	2cc\	.	8.ee-\	.	.	.	.
8F\J	.	.	.	.	.	.	.	.
.	.	.	.	16dd\Jk	.	.	.	.
*custos:G	*	*	*	*	*	*	*	*
!LO:LB:g=original	!	!	!	!	!	!	!	!
2G\	4	.	.	2dd\	.	.	.	.
!	!	!LO:N:acc=#	!	!	!	!	!	!
.	3	4bn/	.	.	.	.	.	.
=8-	=8-	=8-	=8-	=8-	=8-	=8-	=8-	=8-
8c\L	.	2cc\	.	2ee-X\	.	4.C/	Je-	.
8B-\	.	.	.	.	.	.	.	.
8An-i\	.	.	.	.	.	.	.	.
8G\J	.	.	.	.	.	8C/	-ſu	.
2F\	-	2r	.	2r	.	4A-X\	dul-	.
.	.	.	.	.	.	8.F\	-cis	.
!	!	!	!	!	!	!LO:TX:t=P:problem:kreska pseudotaktowa	!	!
.	.	.	.	.	.	16F\	me-	.
=9-	=9-	=9-	=9-	=9-	=9-	=9-	=9-	=9-
2G\	# 4	00r	.	0r	.	4.G\	-mo-	.
.	X 3	.	.	.	.	8GG/	-ri-	.
4C/	-	.	.	.	.	8C/	-a	.
.	.	.	.	.	.	8c\	dans	.
4D/	6	.	.	.	.	8.B-X\	ve-	.
!	!	!	!	!	!	!LO:TX:t=P:problem:kreska pseudotaktowa	!	!
.	.	.	.	.	.	16A-X\	-ra	.
=10-	=10-	=10-	=10-	=10-	=10-	=10-	=10-	=10-
4.E-X\	.	.	.	.	.	16G\LL	cor-	.
.	.	.	.	.	.	16F\	.	.
.	.	.	.	.	.	16E-X\	.	.
.	.	.	.	.	.	16D\JJ	.	.
.	.	.	.	.	.	8E-X\	.	.
8AA-X/	.	.	.	.	.	8AA-X/	-dis	.
!LO:TX:t=P:problem:kreska pseudotaktowa	!	!	!	!	!	!	!	!
2BB-/	4	.	.	.	.	4.BB-/	gau-	.
!	!	!	!	!	!	!LO:TX:t=P:problem:kreska pseudotaktowa	!	!
.	3	.	.	.	.	8BB-/	-di-	.
=11-	=11-	=11-	=11-	=11-	=11-	=11-	=11-	=11-
8E-X\L	.	.	.	1r	.	4E-X\	-a	.
8E-\	.	.	.	.	.	.	.	.
8.D\	.	.	.	.	.	4r	.	.
16C\Jk	.	.	.	.	.	.	.	.
2BB-/	.	.	.	.	.	8r	.	.
.	.	.	.	.	.	8B-\	dans	.
.	.	.	.	.	.	8.A-X\	ve-	.
!	!	!	!	!	!	!LO:TX:t=P:problem:kreska pseudotaktowa	!	!
.	.	.	.	.	.	16G\	-ra	.
!	!	!	!	!LO:LB:g=original	!	!LO:LB:g=original	!	!
=12-	=12-	=12-	=12-	=12-	=12-	=12-	=12-	=12-
2F\	-	.	.	2r	.	16F\LL	cor-	.
.	.	.	.	.	.	16E-X\	.	.
.	.	.	.	.	.	16F\	.	.
.	.	.	.	.	.	16G\JJ	.	.
.	.	.	.	.	.	8A-X\	.	.
.	.	.	.	.	.	8F\	-dis	.
!LO:TX:t=P:problem:kreska pseudotaktowa	!	!	!	!	!	!	!	!
2G\	4	.	.	8r	.	4.G\	gau-	.
.	3	.	.	8gg\L	.	.	.	.
.	.	.	.	8ff\	.	.	.	.
!	!	!	!	!	!	!LO:TX:t=P:problem:kreska pseudotaktowa	!	!
.	.	.	.	16ee-X\L	.	8GG/	-di-	.
.	.	.	.	16dd\JJ	.	.	.	.
!	!	!LO:LB:g=original	!	!	!	!	!	!
=13-	=13-	=13-	=13-	=13-	=13-	=13-	=13-	=13-
2C/	-	8r	.	8ee-X\L	.	2C/	-a	.
.	.	8cc/L	.	8ff\	.	.	.	.
.	.	8b-y/	.	8gg\	.	.	.	.
.	.	16a/L	.	8ee-\J	.	.	.	.
.	.	16g/JJ	.	.	.	.	.	.
2F\	#n	8a/L	.	8ff\L	.	2r	.	.
.	.	8b-/	.	8ff\	.	.	.	.
.	.	8cc/	.	8ee-X\	.	.	.	.
.	.	8a/J	.	16dd\L	.	.	.	.
.	.	.	.	16cc\JJ	.	.	.	.
=14-	=14-	=14-	=14-	=14-	=14-	=14-	=14-	=14-
2BB-/	.	8b-/L	.	8dd\L	.	4r	.	.
.	.	8cc/	.	8ee-X\	.	.	.	.
.	.	8dd/	.	8ff\	.	8r	.	.
.	.	8b-/J	.	8dd\J	.	8BB-/	dans	.
2C/	6	8a/L	.	8cc/L	.	8C/	ve-	.
.	5	8g/J	.	8b-/	.	8D/	-ra	.
.	.	2g/	.	8.b-/	.	8E-X\	cor-	.
.	.	.	.	.	.	8C/	-dis	.
.	.	.	.	16a/Jk	.	.	.	.
=15-	=15-	=15-	=15-	=15-	=15-	=15-	=15-	=15-
2D/	4	.	.	4.a/	.	4.D/	gau-	.
.	3	4f#X/	.	.	.	.	.	.
.	.	.	.	8a/	.	8D/	-di-	.
4G\	.	8g\L	.	8b-/L	.	4GG/	-a	.
.	.	16a\L	.	16cc/L	.	.	.	.
.	.	16b-\J	.	16dd/JJ	.	.	.	.
4E-X\	6	8cc\	.	8ee-X\L	.	8r	.	.
!	!	!	!	!	!	!LO:TX:t=P:problem:kreska pseudotaktowa	!	!
.	.	8gg\J	.	8bb-\J	.	8E-X\	dans	.
*custos:F	*	*	*	*	*	*	*	*
!LO:LB:g=original	!	!	!	!	!	!	!	!
=16-	=16-	=16-	=16-	=16-	=16-	=16-	=16-	=16-
2F\	.	8ff\L	.	8aa-X\L	.	8F\	cor-	.
.	.	8ee-X\	.	8gg\	.	8G\	-di	.
.	.	8dd\	.	8ff\	.	8A-X\	ve-	.
.	.	8cc\J	.	8ee-X\J	.	8F\	-ra	.
!LO:TX:t=P:problem:kreska pseudotaktowa	!	!	!	!	!	!	!	!
2G\	4	4.cc\	.	2dd\	.	4.G\	gau-	.
!	!	!LO:N:acc=#	!	!	!	!	!	!
.	3	8bn/	.	.	.	8GG/	-di-	.
=17-	=17-	=17-	=17-	=17-	=17-	=17-	=17-	=17-
4C/	.	4cc\	.	4ee-X\	.	4C/	-a	.
4E-X\	.	8r	.	8r	.	8r	.	.
!	!	!	!	!	!LO:DY:b:t=pian	!	!	!
.	.	8gg\	.	8bb-\	p	8E-X\	dans	.
*	*	*	*	*	*	*custos:F	*	*
!	!	!	!	!LO:TX:t=P:problem:dodany bemol	!	!LO:LB:g=original	!	!
2F\	.	8ff\L	.	8aa-\L	.	8F\	ve-	.
.	.	8ee-X\	.	8gg\	.	8G\	-ra	.
.	.	8dd\	.	8ff\	.	8A-X\	cor-	.
!	!	!	!	!	!	!LO:TX:t=P:problem:kreska pseudotaktowa	!	!
.	.	8cc\J	.	8ee-X\J	.	8F\	-dis	.
=18-	=18-	=18-	=18-	=18-	=18-	=18-	=18-	=18-
2G\	4	4.cc\	.	2dd\	.	4.G\	gau-	.
!	!	!LO:N:acc=#	!	!	!	!	!	!
.	3	8bn/	.	.	.	8GG/	-di-	.
!LO:TX:t=P:problem:kreska pseudotaktowa	!	!	!	!	!	!	!	!
2C/	-	4cc\	.	4ee-X\	.	8C/	-a	.
.	.	.	.	.	.	8C/	ſed	.
!	!	!	!	!LO:TX:t=P:problem:brak 4r	!	!	!	!
.	.	4r	.	4ryy	.	8D/	ſu-	.
!	!	!	!	!	!	!LO:TX:t=P:problem:kreska pseudotaktowa	!	!
.	.	.	.	.	.	8Eny\	-per	.
!	!	!	!	!LO:LB:g=original	!	!	!	!
=19-	=19-	=19-	=19-	=19-	=19-	=19-	=19-	=19-
2F\	.	00r	.	00r	.	8F\	mel	.
.	.	.	.	.	.	8F\	ſed	.
.	.	.	.	.	.	8G\	ſu-	.
.	.	.	.	.	.	8Any\	-per	.
2BB-/	.	.	.	.	.	8B-\L	mel	.
.	.	.	.	.	.	16A\L	.	.
.	.	.	.	.	.	16B-\JJ	.	.
.	.	.	.	.	.	16G\LL	.	.
.	.	.	.	.	.	16A-\	.	.
.	.	.	.	.	.	16F\	.	.
!	!	!	!	!	!	!LO:TX:t=P:problem:kreska pseudotaktowa	!	!
.	.	.	.	.	.	16G\JJ	.	.
=20-	=20-	=20-	=20-	=20-	=20-	=20-	=20-	=20-
2E-X\	.	.	.	.	.	8E-X\L	.	.
.	.	.	.	.	.	16D\L	.	.
.	.	.	.	.	.	16E-\JJ	.	.
.	.	.	.	.	.	16C/LL	.	.
.	.	.	.	.	.	16D/	.	.
.	.	.	.	.	.	16BB-/	.	.
.	.	.	.	.	.	16C/JJ	.	.
4AA-X/	.	.	.	.	.	4AA-X/	.	.
!LO:TX:t=P:problem:kreska pseudotaktowa	!	!	!	!	!	!	!	!
4BB-/	.	.	.	.	.	16BB-/LL	.	.
.	.	.	.	.	.	16C/	.	.
.	.	.	.	.	.	16D/	.	.
!	!	!	!	!	!	!LO:TX:t=P:problem:kreska pseudotaktowa	!	!
.	.	.	.	.	.	16BB-/JJ	.	.
*	*	*	*	*	*	*custos:C	*	*
!	!	!	!	!	!	!LO:LB:g=original	!	!
=21-	=21-	=21-	=21-	=21-	=21-	=21-	=21-	=21-
2C/	4	.	.	.	.	4.C/	om-	.
.	3	.	.	.	.	.	.	.
.	.	.	.	.	.	8C/	-ni-	.
2FF/	.	.	.	.	.	4FF/	-a	.
.	.	.	.	.	.	(16F\LL	e-	.
.	.	.	.	.	.	16G\JJ)	.	.
.	.	.	.	.	.	(16F\LL	-jus	.
!	!	!	!	!	!	!LO:TX:t=P:problem:kreska pseudotaktowa	!	!
!	!	!	!	!	!	!LO:SIC:v:s=16E-\JJ)	!	!
.	.	.	.	.	.	16Eny\JJ)	.	.
=22-	=22-	=22-	=22-	=22-	=22-	=22-	=22-	=22-
2BB-/	.	.	.	.	.	8D/	dul-	.
.	.	.	.	.	.	8BB-/	-cis	.
.	.	.	.	.	.	(16B-\LL	e-	.
.	.	.	.	.	.	16c\JJ)	.	.
.	.	.	.	.	.	(16B-\LL	-jus	.
!	!	!	!	!	!	!LO:SIC:v:s=16A-\JJ)	!	!
.	.	.	.	.	.	16Any\JJ)	.	.
4E-X\	.	.	.	.	.	4G\	dul-	.
!LO:TX:t=P:problem:kreska pseudotaktowa	!	!	!	!	!	!	!	!
4C/	.	.	.	.	.	8G\	-cis	.
!	!	!	!	!	!	!LO:TX:t=P:problem:kreska pseudotaktowa	!	!
.	.	.	.	.	.	8G\	prae-	.
=23-	=23-	=23-	=23-	=23-	=23-	=23-	=23-	=23-
2D/	4	8r	.	2r	.	4.G\	-ſen-	.
.	3	16dd\LL	.	.	.	.	.	.
.	.	16cc\JJ	.	.	.	.	.	.
.	.	16b-y\LL	.	.	.	.	.	.
.	.	16cc\	.	.	.	.	.	.
.	.	16a\	.	.	.	8F#X\	-ti-	.
.	.	16b-\JJ	.	.	.	.	.	.
!	!	!LO:LB:g=original	!	!	!	!	!	!
4E-X\	.	8g/L	.	8r	.	4G\	-a	.
.	.	16g/L	.	16gg\LL	.	.	.	.
.	.	16a/JJ	.	16ff\JJ	.	.	.	.
4G\	.	4b-/	.	16ee-X\LL	.	4r	.	.
.	.	.	.	16ff\	.	.	.	.
.	.	.	.	16dd\	.	.	.	.
.	.	.	.	16ee-X\JJ	.	.	.	.
=24-	=24-	=24-	=24-	=24-	=24-	=24-	=24-	=24-
2A-X\	.	8r	.	8cc\L	.	0r	.	.
.	.	16aa-X\LL	.	16ccc\L	.	.	.	.
.	.	16gg\JJ	.	16bb-\JJ	.	.	.	.
.	.	16ff\LL	.	16aa-X\LL	.	.	.	.
.	.	16gg\	.	16bb-\	.	.	.	.
.	.	16ee-X\	.	16gg\	.	.	.	.
.	.	16ff\JJ	.	16aa-\JJ	.	.	.	.
4B-\	.	8dd\L	.	8ff\L	.	.	.	.
.	.	8dd\	.	8ff\	.	.	.	.
4A-X\	.	8ee-X\	.	8gg\	.	.	.	.
.	.	8ff\J	.	8aa-\J	.	.	.	.
=25-	=25-	=25-	=25-	=25-	=25-	=25-	=25-	=25-
4G\	.	8gg\L	.	8bb-\L	.	.	.	.
.	.	8b-\	.	8dd\	.	.	.	.
4F\	.	8cc\	.	8ee-X\	.	.	.	.
.	.	8dd\J	.	8ff\J	.	.	.	.
2E-X\	.	8ee-X\L	.	8gg\L	.	.	.	.
.	.	8dd\	.	8ff\	.	.	.	.
.	.	8cc\	.	8ee-X\	.	.	.	.
.	.	8b-\J	.	8dd\J	.	.	.	.
=26-	=26-	=26-	=26-	=26-	=26-	=26-	=26-	=26-
2F\	4	4.b-/	.	4.cc\	.	8r	.	.
.	.	.	.	.	.	(16Fny\LL	e-	.
!	!	!	!	!	!	!LO:SIC:v:s=16E-\JJ)	!	!
.	.	.	.	.	.	16E\JJ)	.	.
.	.	.	.	.	.	16D\LL	.	.
.	.	.	.	.	.	16E-X\	.	.
.	3	8a/	.	8cc\	.	16C\	.	.
.	.	.	.	.	.	16D\JJ	.	.
!LO:TX:t=P:problem:custos z bemolem	!	!	!	!	!	!LO:TX:a:t=P:problem:mixed beam	!	!
2BB-/	.	4b-/	.	4dd\	.	8BB-/L	.	.
.	.	.	.	.	.	16B-\L	.	.
.	.	.	.	.	.	16A-X\JJ	.	.
.	.	4r	.	4r	.	16G\LL	.	.
.	.	.	.	.	.	16A-X\	.	.
.	.	.	.	.	.	16F\	.	.
.	.	.	.	.	.	16G\JJ	.	.
*custos:E	*	*	*	*	*	*	*	*
!LO:LB:g=original	!	!	!	!	!	!LO:LB:g=original	!	!
=27-	=27-	=27-	=27-	=27-	=27-	=27-	=27-	=27-
4E-X\	.	1r;	.	1r	.	8E-X\	.	.
.	.	.	.	.	.	8E-\	-j(us)	.
8F\L	.	.	.	.	.	8F\	e-	.
8G\J	.	.	.	.	.	8G\	-j(us)	.
4.A-X\	.	.	.	.	.	4A-X\	dul-	.
.	.	.	.	.	.	(16A-\LL	-cis	.
.	.	.	.	.	.	16G\JJ)	.	.
8F\	.	.	.	.	.	(16A-X\LL	prae-	.
!	!	!	!	!	!	!LO:TX:t=P:problem:kreska pseudotaktowa	!	!
.	.	.	.	.	.	16F\JJ)	.	.
=28-	=28-	=28-	=28-	=28-	=28-	=28-	=28-	=28-
2G\	.	2r	.	8r	.	4.G\	-ſen-	.
.	.	.	.	16gg\LL	.	.	.	.
.	.	.	.	16ff\JJ	.	.	.	.
.	.	.	.	16ee-X\LL	.	.	.	.
.	.	.	.	16ff\	.	.	.	.
.	.	.	.	16dd\	.	8GG/	-ti-	.
.	.	.	.	16ff\JJ	.	.	.	.
2C/	-	8r	.	4.ee-X\	.	4C/	-a	.
.	.	16cc/LL	.	.	.	.	.	.
.	.	16b-/JJ	.	.	.	.	.	.
!	!	!	!	!	!	!LO:TX:t=P:problem:kreska pseudotaktowa	!	!
.	.	16a-X/LL	.	.	.	4r	.	.
.	.	16b-/	.	.	.	.	.	.
.	.	16g/	.	8ee-\	.	.	.	.
.	.	16b-/JJ	.	.	.	.	.	.
=29-	=29-	=29-	=29-	=29-	=29-	=29-	=29-	=29-
2F\	.	4.a-X/	.	8ff\L	.	8r	.	.
.	.	.	.	16aa-X\L	.	(16F\LL	e-	.
.	.	.	.	16gg\JJ	.	16E-X\JJ)	.	.
.	.	.	.	16ff\LL	.	16D\LL	.	.
.	.	.	.	16gg\	.	16E-X\	.	.
.	.	8a-/	.	16ee-X\	.	16C\	.	.
.	.	.	.	16ff\JJ	.	16D\JJ	.	.
!	!	!	!	!LO:LB:g=original	!	!	!	!
2BB-/	.	16b-/LL	.	[4dd\	.	16BB-\LL	.	.
.	.	16a-/	.	.	.	16F\	.	.
.	.	16b-/	.	.	.	16G\	.	.
!	!	!	!	!	!	!LO:SIC:v:s=16A-\JJ	!	!
.	.	16cc/JJ	.	.	.	16Any\JJ	.	.
!	!	!	!	!LO:TX:a:t=P:problem:mixed beam	!	!LO:TX:a:t=P:problem:mixed beam	!	!
.	.	8.dd\L	.	16dd\LL]	.	16B-\LL	.	.
.	.	.	.	16d/	.	16BB-/	.	.
!	!	!	!	!LO:SIC:v:s=16e-/	!	!	!	!
.	.	.	.	16e/	.	16C/	.	.
!	!	!	!	!	!	!LO:TX:t=P:problem:kreska pseudotaktowa	!	!
.	.	16cc\Jk	.	16f/JJ	.	16D/JJ	.	.
=30-	=30-	=30-	=30-	=30-	=30-	=30-	=30-	=30-
4.E-X\	.	4b-/	.	4g/	.	16E-X\LL	.	.
.	.	.	.	.	.	16F\	.	.
.	.	.	.	.	.	16G\	.	.
.	.	.	.	.	.	16F\JJ	.	.
.	.	2cc\	.	8ryy	.	16E-X\LL	.	.
.	.	.	.	.	.	16F\	.	.
8D/	.	.	.	16gg\LL	.	16D\	.	.
.	.	.	.	16ff\JJ	.	16E-\JJ	.	.
4.C/	.	.	.	16ee-X\LL	.	16C/LL	.	.
.	.	.	.	16ff\	.	16D/	.	.
.	.	.	.	16gg\	.	16E-X/	.	.
.	.	.	.	16ff\JJ	.	16D/JJ	.	.
.	.	4g/	.	16ee-X\LL	.	16C/LL	.	.
.	.	.	.	16ff\	.	16D/	.	.
8BB-/	.	.	.	16dd\	.	16BB-/	.	.
.	.	.	.	16ee-X\JJ	.	16C/JJ	.	.
!	!	!LO:LB:g=original	!	!	!	!LO:LB:g=original	!	!
=31-	=31-	=31-	=31-	=31-	=31-	=31-	=31-	=31-
4.AA-X/	.	2a-X/	.	16cc\LL	.	16AA-X/LL	.	.
.	.	.	.	16dd\	.	16BB-/	.	.
.	.	.	.	16ee-X\	.	16C/	.	.
.	.	.	.	16dd\JJ	.	16BB-/JJ	.	.
.	.	.	.	16cc\LL	.	16AA-X/LL	.	.
.	.	.	.	16dd\	.	16BB-/	.	.
8GG/	.	.	.	16b-\	.	16GG/	.	.
.	.	.	.	16cc\JJ	.	16AA-X/JJ	.	.
2FF/	.	4r	.	16a-X/LL	.	4.FF/	.	.
.	.	.	.	16g/	.	.	.	.
.	.	.	.	16a-/	.	.	.	.
.	.	.	.	16b-/JJ	.	.	.	.
.	.	8r	.	8cc/L	.	.	.	.
!	!	!	!	!	!	!LO:TX:t=P:problem:kreska pseudotaktowa	!	!
.	.	16ff\LL	.	8a-X/J	.	8FF/	-j(us)	.
.	.	16ee-X\JJ	.	.	.	.	.	.
=32-	=32-	=32-	=32-	=32-	=32-	=32-	=32-	=32-
1BB-	.	16dd\LL	.	4b-/	.	4BB-/	dul-	.
.	.	16ee-X\	.	.	.	.	.	.
.	.	16ff\	.	.	.	.	.	.
.	.	16ee-\JJ	.	.	.	.	.	.
.	.	16dd\LL	.	2bb-\	.	4BB-/	-cis	.
.	.	16ee-X\	.	.	.	.	.	.
.	.	16cc\	.	.	.	.	.	.
.	.	16dd\JJ	.	.	.	.	.	.
!	!	!	!	!	!	!LO:TX:t=P:problem:kreska pseudotaktowa	!	!
.	.	16b-/LL	.	.	.	2r	.	.
.	.	16cc/	.	.	.	.	.	.
.	.	16dd/	.	.	.	.	.	.
.	.	16cc/JJ	.	.	.	.	.	.
.	.	16b-/LL	.	4ff\	.	.	.	.
.	.	16cc/	.	.	.	.	.	.
!	!	!LO:SIC:v:s=16a-/	!	!	!	!	!	!
.	.	16any/	.	.	.	.	.	.
.	.	16b-/JJ	.	.	.	.	.	.
=33-	=33-	=33-	=33-	=33-	=33-	=33-	=33-	=33-
4.E-X\	.	4g/	.	16gg\LL	.	16E-X\LL	e-	.
.	.	.	.	16aa-X\	.	16F\	.	.
.	.	.	.	16bb-\	.	16G\	.	.
.	.	.	.	16aa-X\JJ	.	16F\JJ	.	.
.	.	2cc\	.	16gg\LL	.	16E-X\LL	.	.
.	.	.	.	16aa-X\	.	16F\	.	.
8D/	.	.	.	16ff\	.	16D\	.	.
.	.	.	.	16gg\JJ	.	16E-X\JJ	.	.
4.C/	-	.	.	16ee-X\LL	.	16C\LL	.	.
.	.	.	.	16ff\	.	16D\	.	.
.	.	.	.	16gg\	.	16E-X\	.	.
.	.	.	.	16ff\JJ	.	16D\JJ	.	.
!	!	!	!	!LO:LB:g=original	!	!	!	!
.	.	4g/	.	16ee-X\LL	.	16C/LL	.	.
.	.	.	.	16ff\	.	16D/	.	.
8BB-/	.	.	.	16dd\	.	16BB-/	.	.
!	!	!	!	!	!	!LO:TX:t=P:problem:kreska pseudotaktowa	!	!
.	.	.	.	16ee-X\JJ	.	16C/JJ	.	.
=34-	=34-	=34-	=34-	=34-	=34-	=34-	=34-	=34-
4.AA-X/	6	4cc\	.	4.ff\	.	16AA-X/LL	.	.
.	.	.	.	.	.	16BB-/	.	.
.	.	.	.	.	.	16C/	.	.
.	.	.	.	.	.	16BB-/JJ	.	.
.	.	4cc\	.	.	.	16AA-X/LL	.	.
.	.	.	.	.	.	16BB-/	.	.
8GG/	.	.	.	8ee-X\	.	16GG/	.	.
.	.	.	.	.	.	16AA-/JJ	.	.
8FF/L	-	8ff\L	.	8aa-X\L	.	8FF/	.	.
8GG/	.	8ee-X\	.	8gg\	.	8GG/	-j(us)	.
8AA-/	.	8dd\	.	8.ff\	.	8AA-X/	dul-	.
8FF/J	.	8cc\J	.	.	.	16FF/	-cis	.
.	.	.	.	16ee-X\Jk	.	16FF/	prae-	.
*	*	*	*	*	*	*custos:GG	*	*
!	!	!	!	!	!	!LO:LB:g=original	!	!
=35-	=35-	=35-	=35-	=35-	=35-	=35-	=35-	=35-
!	!	!LO:N:acc=#	!	!	!	!	!	!
1GG	4	4bn/	.	1dd	.	2.GG/	-ſen-	.
.	3	2cc\	.	.	.	.	.	.
!	!	!LO:N:acc=#	!	!	!	!	!	!
.	.	4bn/	.	.	.	4GG/	-ti-	.
*custos:C	*	*	*	*	*	*	*	*
!LO:LB:g=original	!	!	!	!	!	!	!	!
=36-	=36-	=36-	=36-	=36-	=36-	=36-	=36-	=36-
*M3/2	*	*M3/2	*	*M3/2	*	*M3/2	*	*
1.C	-	1cc	.	1ee-X	.	1C	-a	.
.	.	2r	.	2gg\	.	2r	.	.
=37-	=37-	=37-	=37-	=37-	=37-	=37-	=37-	=37-
!	!	!LO:TX:a:t=1:mod=	!	!	!	!LO:N:vis=00	!	!
1C	-	1.r	.	2.ee-X\	.	00.r	.	.
.	.	.	.	4dd\	.	.	.	.
!LO:TX:t=P:problem:kreska pseudotaktowa	!	!	!	!	!	!	!	!
2A-X\	.	.	.	4cc\	.	.	.	.
.	.	.	.	4dd\	.	.	.	.
=38-	=38-	=38-	=38-	=38-	=38-	=38-	=38-	=38-
!	!	!	!	!LO:N:acc=#	!	!	!	!
1.G	#n	2r	.	4bn/	.	.	.	.
.	.	.	.	4any/	.	.	.	.
.	.	2r	.	4b/	.	.	.	.
.	.	.	.	4cc\	.	.	.	.
!	!	!LO:TX:t=P:problem:custos z bemolem	!	!	!	!	!	!
.	.	2gg\	.	4dd\	.	.	.	.
!	!	!	!	!LO:N:acc=#	!	!	!	!
.	.	.	.	4bn/	.	.	.	.
*	*	*custos:ee	*	*	*	*	*	*
!	!	!LO:LB:g=original	!	!	!	!	!	!
=39-	=39-	=39-	=39-	=39-	=39-	=39-	=39-	=39-
!	!	!LO:SIC:s=2.ee-\	!	!	!	!	!	!
1C	.	2.ee-y\	.	2cc\	.	.	.	.
.	.	.	.	2.gg\	.	.	.	.
.	.	4dd\	.	.	.	.	.	.
2A-X\	.	4cc\	.	.	.	.	.	.
.	.	4dd\	.	4ff\	.	.	.	.
=40-	=40-	=40-	=40-	=40-	=40-	=40-	=40-	=40-
!	!	!LO:N:acc=#	!	!	!	!	!	!
1.G	#n	4bn/	.	1gg	.	.	.	.
.	.	4a/	.	.	.	.	.	.
.	.	4b/	.	.	.	.	.	.
.	.	4cc/	.	.	.	.	.	.
.	.	4dd/	.	2gg\	.	.	.	.
!	!	!LO:N:acc=#	!	!	!	!	!	!
.	.	4bn/	.	.	.	.	.	.
=41-	=41-	=41-	=41-	=41-	=41-	=41-	=41-	=41-
!	!	!	!	!	!	!LO:N:vis=00	!	!
1.C	-	4cc/	.	4ee-X\	.	00.r	.	.
!	!	!LO:N:acc=#	!	!	!	!	!	!
.	.	4bn/	.	4dd\	.	.	.	.
.	.	4cc/	.	4ee-\	.	.	.	.
.	.	4dd\	.	4ff\	.	.	.	.
.	.	4ee-X\	.	4gg\	.	.	.	.
.	.	4ff\	.	4aany\	.	.	.	.
=42-	=42-	=42-	=42-	=42-	=42-	=42-	=42-	=42-
2.GG/	.	2.gg\	.	2.bb-X\	.	.	.	.
4AAny/	.	4gg\	.	4bb-\	.	.	.	.
2BB-/	.	2gg\	.	2bb-\	.	.	.	.
=43-	=43-	=43-	=43-	=43-	=43-	=43-	=43-	=43-
2C/	6	2gg\	.	2aa\	.	.	.	.
!	!	!	!	!LO:TX:t=P:problem:nad nutą wykreślony bemol (?)	!	!	!	!
2D/	.	2.gg\	.	1aa	.	.	.	.
!LO:TX:t=P:problem:kreska pseudotaktowa	!	!	!	!	!	!	!	!
2DD/	.	.	.	.	.	.	.	.
.	.	4ff#X\	.	.	.	.	.	.
*	*	*	*	*custos:gg	*	*	*	*
!	!	!	!	!LO:LB:g=original	!	!	!	!
=44-	=44-	=44-	=44-	=44-	=44-	=44-	=44-	=44-
1GG	.	2gg\	.	2gg\	.	.	.	.
.	.	1gg	.	1bb-	.	.	.	.
2G\	.	.	.	.	.	.	.	.
=45-	=45-	=45-	=45-	=45-	=45-	=45-	=45-	=45-
!	!	!	!	!	!	!LO:N:vis=00	!	!
1.A-X	6	2.ffny\	.	2.aa-X\	.	00.r	.	.
.	.	4ee-X\	.	4gg\	.	.	.	.
.	.	4ee-\	.	4gg\	.	.	.	.
.	.	4dd\	.	4ff\	.	.	.	.
=46-	=46-	=46-	=46-	=46-	=46-	=46-	=46-	=46-
1B-	.	2.dd\	.	2.ff\	.	.	.	.
!	!	!	!	!LO:SIC:v:s=8ee-\L	!	!	!	!
.	.	8cc\L	.	8eeny\L	.	.	.	.
.	.	8dd\J	.	8ff\J	.	.	.	.
!LO:TX:t=P:problem:custos z bemolem	!	!	!	!	!	!	!	!
2G\	- 6	4ee-X\	.	4gg\	.	.	.	.
!	!	!LO:SIC:v:s=4dd\	!	!	!	!	!	!
.	.	4ee-\	.	4ff\	.	.	.	.
*custos:A	*	*	*	*	*	*	*	*
!LO:LB:g=original	!	!LO:LB:g=original	!	!	!	!	!	!
=47-	=47-	=47-	=47-	=47-	=47-	=47-	=47-	=47-
1A-X	.	2.cc\	.	2.ee-X\	.	.	.	.
!	!	!LO:SIC:v:s=8bn\L	!	!	!	!	!	!
.	.	8b-y\L	.	8dd\L	.	.	.	.
.	.	8cc\J	.	8ee-\J	.	.	.	.
2F\	6	4dd\	.	4ff\	.	.	.	.
.	.	4cc\	.	4ee-\	.	.	.	.
=48-	=48-	=48-	=48-	=48-	=48-	=48-	=48-	=48-
!	!	!LO:N:acc=#	!	!	!	!	!	!
2G\	.	2bn/	.	2dd\	.	.	.	.
!LO:TX:t=P:problem:kreska pseudotaktowa	!	!	!	!	!	!	!	!
1E-X	.	2r	.	2r	.	.	.	.
.	.	2ee-X\	.	2gg\	.	.	.	.
=49-	=49-	=49-	=49-	=49-	=49-	=49-	=49-	=49-
2.F\	.	1dd	.	1ff	.	1.r	.	.
4G\	.	.	.	.	.	.	.	.
2A-X\	.	2cc	.	2ee-X\	.	.	.	.
=50-	=50-	=50-	=50-	=50-	=50-	=50-	=50-	=50-
2F\	6	2cc\	.	1dd	.	2r	.	.
2G\	4	2.cc\	.	.	.	2r	.	.
*	*	*	*	*	*	*2\right	*	*
!LO:TX:t=P:problem:kreska pseudotaktowa	!	!	!	!	!	!	!	!
2GG/	3	.	.	2dd\	.	2G\	Nil	.
!	!	!LO:N:acc=#	!	!	!	!	!	!
.	.	4bn/	.	.	.	.	.	.
=51-	=51-	=51-	=51-	=51-	=51-	=51-	=51-	=51-
1C	-	1cc	.	1ee-X	.	2.E-X\	ca-	.
.	.	.	.	.	.	4D/	-ni-	.
2A-X\	7	2r	.	2r	.	4C/	-tur	.
.	6	.	.	.	.	4AA-X/	ſu-	.
=52-	=52-	=52-	=52-	=52-	=52-	=52-	=52-	=52-
!LO:TX:t=P:problem:kreska pseudotaktowa	!	!LO:N:vis=00	!	!LO:N:vis=00	!	!	!	!
1.G	#n	00.r	.	00.r	.	2.GG/	-a-	.
.	.	.	.	.	.	4GG/	-vi-	.
.	.	.	.	.	.	2GG/	-us	.
=53-	=53-	=53-	=53-	=53-	=53-	=53-	=53-	=53-
1.G	.	.	.	.	.	2r	.	.
!	!	!	!	!	!	!LO:TX:a:t=Alleg&colon;	!	!
.	.	.	.	.	.	2.G\	nil	.
.	.	.	.	.	.	4G\	au-	.
=54-	=54-	=54-	=54-	=54-	=54-	=54-	=54-	=54-
2A-X\	.	.	.	.	.	2A-X\	-di-	.
2F\	7	.	.	.	.	2F\	-tur	.
!LO:TX:t=P:problem:kreska pseudotaktowa	!	!	!	!	!	!	!	!
2B-\	.	.	.	.	.	2B-\	ju-	.
=55-	=55-	=55-	=55-	=55-	=55-	=55-	=55-	=55-
1.E-X	.	.	.	.	.	2.E-X\	-cun-	.
.	.	.	.	.	.	4E-\	-di-	.
!	!	!	!	!	!	!LO:TX:t=P:problem:kreska pseudotaktowa	!	!
.	.	.	.	.	.	2E-\	-(us)	.
=56-	=56-	=56-	=56-	=56-	=56-	=56-	=56-	=56-
!LO:TX:t=P:problem:LO:SIC:s=2.E-\	!	!LO:N:vis=00	!	!LO:N:vis=00	!	!LO:TX:t=P:problem:LO:SIC:s=2E-\	!	!
2.E-y\	.	00.r	.	00.r	.	2E-y\	nil	.
.	.	.	.	.	.	4E-\	co-	.
4D/	.	.	.	.	.	4D/	-gi-	.
4C/	.	.	.	.	.	4C/	-ta-	.
4F\	.	.	.	.	.	4F\	-tur	.
*custos:BB	*	*	*	*	*	*custos:BB	*	*
!LO:LB:g=original	!	!	!	!	!	!LO:LB:g=original	!	!
=57-	=57-	=57-	=57-	=57-	=57-	=57-	=57-	=57-
1.BB-	.	.	.	.	.	2.BB-/	dul-	.
.	.	.	.	.	.	4BB-/	-ci-	.
.	.	.	.	.	.	2BB-/	-us	.
=58-	=58-	=58-	=58-	=58-	=58-	=58-	=58-	=58-
1.D	6	.	.	.	.	2D/	qvam	.
.	.	.	.	.	.	2D/	Je-	.
.	.	.	.	.	.	2D/	-ſus	.
=59-	=59-	=59-	=59-	=59-	=59-	=59-	=59-	=59-
1E-X	.	.	.	.	.	4E-X\	De-	.
.	.	.	.	.	.	4F\	.	.
.	.	.	.	.	.	4G\	.	.
.	.	.	.	.	.	4A-X\	.	.
!	!	!	!	!	!	!LO:TX:t=P:problem:kreska pseudotaktowa	!	!
[2D/	6	.	.	.	.	2B-\	.	.
=60-	=60-	=60-	=60-	=60-	=60-	=60-	=60-	=60-
!	!	!LO:N:vis=00	!	!LO:N:vis=00	!	!	!	!
4D/]	.	00.r	.	00.r	.	(4D/	-i	.
4E-X\	.	.	.	.	.	4E-X\)	.	.
1F	4	.	.	.	.	2.F\	fi-	.
!	!	!	!	!	!	!LO:TX:t=P:problem:kreska pseudotaktowa	!	!
.	3	.	.	.	.	4FF/	-li-	.
=61-	=61-	=61-	=61-	=61-	=61-	=61-	=61-	=61-
1.BB-	.	.	.	.	.	1BB-	-us	.
.	.	.	.	.	.	2r	.	.
=62-	=62-	=62-	=62-	=62-	=62-	=62-	=62-	=62-
2B-\	.	.	.	.	.	2BB-/	qvam	.
2A-X\	.	.	.	.	.	2AA-X/	Je-	.
2G\	.	.	.	.	.	2GG/	-ſus	.
=63-	=63-	=63-	=63-	=63-	=63-	=63-	=63-	=63-
1.F	.	.	.	.	.	4FF/	De-	.
.	.	.	.	.	.	4GG/	.	.
.	.	.	.	.	.	4AA-X/	.	.
.	.	.	.	.	.	4BB-/	.	.
.	.	.	.	.	.	4C/	.	.
.	.	.	.	.	.	4D/	.	.
*	*	*	*	*	*	*custos:E	*	*
!	!	!	!	!	!	!LO:LB:g=original	!	!
=64-	=64-	=64-	=64-	=64-	=64-	=64-	=64-	=64-
!	!	!LO:N:vis=0	!	!LO:N:vis=00	!	!	!	!
1.E-X	.	0.r	.	00.r	.	4E-X\	.	.
.	.	.	.	.	.	4D/	.	.
.	.	.	.	.	.	4E-X\	.	.
.	.	.	.	.	.	4F\	.	.
.	.	.	.	.	.	4G\	.	.
.	.	.	.	.	.	4E-X\,	.	.
=65-	=65-	=65-	=65-	=65-	=65-	=65-	=65-	=65-
!LO:TX:t=P:problem:kreska pseudotaktowa	!	!	!	!	!	!	!	!
1.F	-	.	.	.	.	4F\	.	.
.	.	.	.	.	.	4E-X\	.	.
.	.	.	.	.	.	4F\	.	.
.	.	.	.	.	.	4G\	.	.
.	.	.	.	.	.	4A-X\	.	.
.	.	.	.	.	.	4G\	.	.
=66-	=66-	=66-	=66-	=66-	=66-	=66-	=66-	=66-
2F\	.	1.r	.	.	.	2F\	-i	.
1G	4	.	.	.	.	2.G\	fi-	.
.	3	.	.	.	.	.	.	.
.	.	.	.	.	.	4GG/	-li-	.
=67-	=67-	=67-	=67-	=67-	=67-	=67-	=67-	=67-
1.C	#	4cc\	.	.	.	1C	-us,	.
.	.	4b-y\	.	.	.	.	.	.
.	.	4cc\	.	.	.	.	.	.
.	.	4dd\	.	.	.	.	.	.
!	!	!LO:SIC:v:s=4ee-\	!	!	!	!	!	!
.	.	4eeny\	.	.	.	2r	.	.
.	.	4cc\	.	.	.	.	.	.
=68-	=68-	=68-	=68-	=68-	=68-	=68-	=68-	=68-
!	!	!	!	!	!	!LO:TX:a:t=6.:mod=	!	!
!	!	!	!	!	!	!LO:N:vis=00	!	!
1.F	.	4a/	.	4ff\	.	00.r	.	.
.	.	4g/	.	4eeny\	.	.	.	.
.	.	4a/	.	4ff\	.	.	.	.
.	.	4b-/	.	4gg\	.	.	.	.
.	.	4cc/	.	4aany\	.	.	.	.
.	.	4a/	.	4ff\	.	.	.	.
=69-	=69-	=69-	=69-	=69-	=69-	=69-	=69-	=69-
1.BB-	.	4b-/	.	4dd\	.	.	.	.
.	.	4a/	.	4cc\	.	.	.	.
.	.	4b-/	.	4dd\	.	.	.	.
!	!	!	!	!LO:SIC:v:s=4ee-\	!	!	!	!
.	.	4cc\	.	4ee\	.	.	.	.
.	.	4dd\	.	4ff\	.	.	.	.
.	.	4ff\	.	4dd\	.	.	.	.
*	*	*	*	*custos:gg	*	*	*	*
!	!	!	!	!LO:LB:g=original	!	!	!	!
=70-	=70-	=70-	=70-	=70-	=70-	=70-	=70-	=70-
1.E-X	.	4ee-X\	.	4gg\	.	.	.	.
.	.	4dd\	.	4ff\	.	.	.	.
!	!	!LO:LB:g=original	!	!	!	!	!	!
.	.	4ee-\	.	4gg\	.	.	.	.
!	!	!	!	!LO:SIC:v:s=4aa-\	!	!	!	!
.	.	4ff\	.	4aa\	.	.	.	.
.	.	4gg\	.	4bb-\	.	.	.	.
.	.	4ee-X\	.	4gg\	.	.	.	.
=71-	=71-	=71-	=71-	=71-	=71-	=71-	=71-	=71-
1.AA-X	.	2cc\	.	2ccc\	.	.	.	.
.	.	1cc	.	1ccc	.	.	.	.
!LO:LB:g=original	!	!	!	!	!	!	!	!
=72-	=72-	=72-	=72-	=72-	=72-	=72-	=72-	=72-
!	!	!	!	!	!	!LO:N:vis=0	!	!
1.BB-	.	4dd\	.	1bb-X	.	0.r	.	.
.	.	4cc\	.	.	.	.	.	.
.	.	4dd\	.	.	.	.	.	.
.	.	4eeny\	.	.	.	.	.	.
.	.	1ff	.	2aa-X\	.	.	.	.
=73-	=73-	=73-	=73-	=73-	=73-	=73-	=73-	=73-
2C/	.	.	.	1gg	.	.	.	.
1C	.	1ee	.	.	.	.	.	.
.	.	.	.	2gg\	.	.	.	.
=74-	=74-	=74-	=74-	=74-	=74-	=74-	=74-	=74-
!LO:TX:t=P:problem:kreska pseudotaktowa	!	!	!	!	!	!	!	!
1.FF	#	1.ff	.	1.aany	.	4F\	qvam	.
.	.	.	.	.	.	4Eny\	.	.
.	.	.	.	.	.	4F\	.	.
.	.	.	.	.	.	4G\	.	.
.	.	.	.	.	.	4Any\	.	.
!	!	!	!	!	!	!LO:TX:t=P:problem:kreska pseudotaktowa	!	!
.	.	.	.	.	.	4F\	.	.
=75-	=75-	=75-	=75-	=75-	=75-	=75-	=75-	=75-
!	!	!LO:N:vis=00	!	!LO:N:vis=00	!	!	!	!
1.BB-	.	00.r	.	00.r	.	4BB-/	.	.
.	.	.	.	.	.	4AAny/	.	.
.	.	.	.	.	.	4BB-/	.	.
.	.	.	.	.	.	4C/	.	.
.	.	.	.	.	.	4D/	.	.
!	!	!	!	!	!	!LO:TX:t=P:problem:kreska pseudotaktowa	!	!
.	.	.	.	.	.	4BB-/	.	.
=76-	=76-	=76-	=76-	=76-	=76-	=76-	=76-	=76-
1.E-X	.	.	.	.	.	4E-X\	.	.
.	.	.	.	.	.	4D/	.	.
.	.	.	.	.	.	4E-X\	.	.
.	.	.	.	.	.	4F\	.	.
.	.	.	.	.	.	4G\	.	.
!	!	!	!	!	!	!LO:TX:t=P:problem:kreska pseudotaktowa	!	!
.	.	.	.	.	.	4E-X\	.	.
*	*	*	*	*	*	*custos:C	*	*
!	!	!	!	!	!	!LO:LB:g=original	!	!
=77-	=77-	=77-	=77-	=77-	=77-	=77-	=77-	=77-
1.C	-	.	.	.	.	4C/	.	.
.	.	.	.	.	.	4BB-/	.	.
.	.	.	.	.	.	4C/	.	.
.	.	.	.	.	.	4D/	.	.
.	.	.	.	.	.	4E-X\	.	.
!	!	!	!	!	!	!LO:TX:t=P:problem:kreska pseudotaktowa	!	!
.	.	.	.	.	.	4C/	.	.
=78-	=78-	=78-	=78-	=78-	=78-	=78-	=78-	=78-
!LO:TX:t=P:problem:kreska pseudotaktowa	!	!	!	!	!	!	!	!
1.A-X	.	.	.	.	.	4A-X\	.	.
.	.	.	.	.	.	4G\	.	.
.	.	.	.	.	.	4A-X\	.	.
.	.	.	.	.	.	4B-\	.	.
.	.	.	.	.	.	4c\	.	.
.	.	.	.	.	.	4A-X\	.	.
=79-	=79-	=79-	=79-	=79-	=79-	=79-	=79-	=79-
!	!	!LO:N:vis=0	!	!LO:N:vis=00	!	!	!	!
1.F	.	0.r	.	00.r	.	4F\	.	.
.	.	.	.	.	.	4E-X\	.	.
.	.	.	.	.	.	4F\	.	.
.	.	.	.	.	.	4G\	.	.
.	.	.	.	.	.	4A-X\	.	.
.	.	.	.	.	.	4F\	.	.
=80-	=80-	=80-	=80-	=80-	=80-	=80-	=80-	=80-
2.G\	.	.	.	.	.	2.G\	Je-	.
4F\	.	.	.	.	.	4F\	-ſus	.
!	!	!	!	!	!	!LO:TX:t=P:problem:kreska pseudotaktowa	!	!
2E-X\	.	.	.	.	.	2E-X\	De-	.
=81-	=81-	=81-	=81-	=81-	=81-	=81-	=81-	=81-
2C/	.	1.r	.	.	.	2C/	-i	.
1G	.	.	.	.	.	2.GG/	fi-	.
.	.	.	.	.	.	4GG/	-li-	.
=82-	=82-	=82-	=82-	=82-	=82-	=82-	=82-	=82-
1.C	.	4cc\	.	.	.	1C	-us	.
!	!	!LO:SIC:v:s=4bn\	!	!	!	!	!	!
.	.	4b-\	.	.	.	.	.	.
.	.	4cc\	.	.	.	.	.	.
.	.	4dd\	.	.	.	.	.	.
.	.	4ee\	.	.	.	2r	.	.
.	.	4cc\	.	.	.	.	.	.
=83-	=83-	=83-	=83-	=83-	=83-	=83-	=83-	=83-
1.F	#	4a/	.	1.r	.	4F\	qvam	.
.	.	4g/	.	.	.	4E-X\	.	.
.	.	4a/	.	.	.	4F\	.	.
.	.	4b-/	.	.	.	4G\	.	.
.	.	4cc\	.	.	.	4Any\	.	.
.	.	4a/	.	.	.	4F\	.	.
*	*	*	*	*	*	*custos:D	*	*
!	!	!	!	!	!	!LO:LB:g=original	!	!
=84-	=84-	=84-	=84-	=84-	=84-	=84-	=84-	=84-
!LO:TX:t=P:problem:kreska pseudotaktowa	!	!	!	!	!	!	!	!
!LO:TX:t=P:problem:custos z bemolem	!	!	!	!	!	!	!	!
1.D	6	1b-	.	4ff\	.	4D/	.	.
!	!	!	!	!LO:SIC:v:s=4ee-\	!	!	!	!
.	.	.	.	4ee\	.	4C/	.	.
.	.	.	.	4ff\	.	4D/	.	.
.	.	.	.	4gg\	.	4E-X\	.	.
.	.	2a/	.	4aa\	.	4F\	.	.
.	.	.	.	4ff\	.	4D/,	.	.
*custos:BB	*	*	*	*	*	*	*	*
!LO:LB:g=original	!	!	!	!	!	!	!	!
=85-	=85-	=85-	=85-	=85-	=85-	=85-	=85-	=85-
1.BB-	.	1b-	.	4dd\	.	4BB-/	.	.
.	.	.	.	4cc\	.	4AA/	.	.
.	.	.	.	4dd\	.	4BB-/	.	.
!	!	!	!	!LO:SIC:v:s=4ee-\	!	!	!	!
.	.	.	.	4ee\	.	4C/	.	.
!	!	!LO:N:vis=1	!	!	!	!	!	!
.	.	2r	.	4ff\	.	4D/	.	.
.	.	.	.	4dd\	.	4BB-/	.	.
=86-	=86-	=86-	=86-	=86-	=86-	=86-	=86-	=86-
1.GG	.	2r	.	4gg\	.	2GG/	Je-	.
.	.	.	.	4ff\	.	.	.	.
.	.	2r	.	4gg\	.	2GG/	-ſus	.
.	.	.	.	4aa-X\	.	.	.	.
.	.	2b-/	.	4bb-\	.	2GG/	qvam	.
.	.	.	.	4gg\	.	.	.	.
=87-	=87-	=87-	=87-	=87-	=87-	=87-	=87-	=87-
1.C	#	4cc\	.	4ee\	.	1C	je-	.
.	.	4b-\	.	4dd\	.	.	.	.
.	.	4cc\	.	4ee\	.	.	.	.
.	.	4dd\	.	4ff\	.	.	.	.
.	.	4ee\	.	4gg\	.	2C/	-ſus	.
.	.	4gg\	.	4ee\	.	.	.	.
!	!	!LO:LB:g=original	!	!	!	!	!	!
=88-	=88-	=88-	=88-	=88-	=88-	=88-	=88-	=88-
1.FF	.	4ff\	.	4aany\	.	2r	.	.
.	.	4ee\	.	4gg\	.	.	.	.
.	.	4ff\	.	4aa\	.	2r	.	.
.	.	4gg\	.	4bb-\	.	.	.	.
.	.	4ff\	.	2aa\	.	2FF/	qvam	.
.	.	4a/	.	.	.	.	.	.
*	*	*	*	*custos:gg	*	*	*	*
!	!	!	!	!LO:LB:g=original	!	!	!	!
=89-	=89-	=89-	=89-	=89-	=89-	=89-	=89-	=89-
!	!	!LO:N:acc=#	!	!	!	!	!	!
2.GG/	#n	4bn/	.	1gg	.	2.GG/	Je-	.
.	.	4a/	.	.	.	.	.	.
.	.	4b/	.	.	.	.	.	.
4AAny/	.	4cc\	.	.	.	4AA/	-ſ(us)	.
2BB-/	.	2dd\	.	2ff\	.	2BB-/	De-	.
=90-	=90-	=90-	=90-	=90-	=90-	=90-	=90-	=90-
2GG/	6	2dd\	.	1ee	.	2GG/	-i	.
!LO:TX:t=P:problem:kreska pseudotaktowa	!	!	!	!	!	!	!	!
1AA	.	2.dd\	.	.	.	2.AA/	fi-	.
.	.	.	.	2ee\	.	.	.	.
.	.	4cc#X\	.	.	.	4AA/	-li-	.
=91-	=91-	=91-	=91-	=91-	=91-	=91-	=91-	=91-
1.D	.	4dd\	.	4ff\	.	1D	-us	.
!	!	!LO:TX:t=P:problem:LO:SIC:s=4cc#\	!	!	!	!	!	!
.	.	4cc#y\	.	4ee\	.	.	.	.
.	.	4dd\	.	4ff\	.	.	.	.
.	.	4ee\	.	4gg\	.	.	.	.
.	.	4ff\	.	4aa\	.	2r	.	.
.	.	4dd\	.	4ff\	.	.	.	.
=92-	=92-	=92-	=92-	=92-	=92-	=92-	=92-	=92-
1.GG	.	4b-y\	.	1gg	.	4G\	qvam	.
.	.	4a\	.	.	.	4F\	.	.
.	.	4b-\	.	.	.	4G\	.	.
.	.	4ccny\	.	.	.	4A\	.	.
.	.	4dd\	.	2gg\	.	4B-\	.	.
.	.	4b-\	.	.	.	4G\	.	.
*	*	*	*	*	*	*custos:C	*	*
!	!	!	!	!	!	!LO:LB:g=original	!	!
=93-	=93-	=93-	=93-	=93-	=93-	=93-	=93-	=93-
1.C	#	1cc	.	4ee\	.	4C/	.	.
.	.	.	.	4dd\	.	4BB-/	.	.
.	.	.	.	4ee\	.	4C/	.	.
.	.	.	.	4ff\	.	4D/	.	.
.	.	2cc\	.	4gg\	.	4Eny\	.	.
.	.	.	.	4ee\	.	4C/	.	.
=94-	=94-	=94-	=94-	=94-	=94-	=94-	=94-	=94-
1.FF	.	4a/	.	1aa	.	4F\	.	.
.	.	4g/	.	.	.	4E\	.	.
.	.	4a/	.	.	.	4F\	.	.
.	.	4b-/	.	.	.	4G\	.	.
.	.	4cc/	.	2aa\	.	4A\	.	.
.	.	4a/	.	.	.	4F\,	.	.
=95-	=95-	=95-	=95-	=95-	=95-	=95-	=95-	=95-
1.BB-	.	4b-/	.	4dd\	.	2BB-/	Je-	.
.	.	4a/	.	4cc\	.	.	.	.
.	.	4b-/	.	4dd\	.	2BB-/	-ſ(us)	.
.	.	4cc/	.	4ee\	.	.	.	.
.	.	4dd/	.	2ff\	.	2BB-/	qvam	.
.	.	4d/	.	.	.	.	.	.
=96-	=96-	=96-	=96-	=96-	=96-	=96-	=96-	=96-
2.C/	#	4e/	.	2r	.	2.C/	Je-	.
.	.	4d/	.	.	.	.	.	.
.	.	4e/	.	2.cc\	.	.	.	.
4D/	.	4fny/	.	.	.	4D/	-ſ(us)	.
2E-X\	.	2g/	.	.	.	2E-X\	De-	.
.	.	.	.	4b-y/	.	.	.	.
!	!	!LO:LB:g=original	!	!	!	!	!	!
=97-	=97-	=97-	=97-	=97-	=97-	=97-	=97-	=97-
2C/	.	2g/	.	1a	.	2C/	-i	.
1D	.	1f#X	.	.	.	2.D/	fi-	.
.	.	.	.	2a/,	.	.	.	.
.	.	.	.	.	.	4D/	-li-	.
*custos:GG	*	*	*	*	*	*	*	*
!LO:LB:g=original	!	!	!	!	!	!	!	!
=98-	=98-	=98-	=98-	=98-	=98-	=98-	=98-	=98-
1GG	.	1g	.	1b-	.	1G	-(us)	.
2E-X\	.	2gg\	.	2bb-\,	.	2E-X\	qva(m)	.
=99-	=99-	=99-	=99-	=99-	=99-	=99-	=99-	=99-
2.F\	.	2.ff\	.	2.aa-X\	.	2.F\	Je-	.
!	!	!LO:SIC:v:s=4ee-\	!	!	!	!	!	!
4G\	.	4ee\	.	4gg\	.	4G\	-ſus	.
2A-X\	.	4dd\	.	4ff\	.	2A-X\	De-	.
.	.	4cc\	.	4ee-X\	.	.	.	.
=100-	=100-	=100-	=100-	=100-	=100-	=100-	=100-	=100-
2F\	6	1cc	.	1dd	.	2F\	-i	.
!LO:TX:t=P:problem:kreska pseudotaktowa	!	!	!	!	!	!	!	!
1G	4	.	.	.	.	2.G\	fi-	.
!	!	!LO:N:acc=#	!	!	!	!	!	!
.	3	2bn/	.	2ryy	.	.	.	.
.	.	.	.	.	.	4GG/	-li-	.
!	!	!	!	!LO:LB:g=original	!	!	!	!
=101-	=101-	=101-	=101-	=101-	=101-	=101-	=101-	=101-
1.C	-	1cc;<	.	1ee-X;<	.	1C	-(us).	.
.	.	2r	.	2gg\	.	2r	.	.
=102-	=102-	=102-	=102-	=102-	=102-	=102-	=102-	=102-
!	!	!LO:TX:a:t=1:mod=	!	!	!	!LO:N:vis=00	!	!
1C	.	1.r	.	2.ee-X\	.	00.r	.	.
.	.	.	.	4dd\	.	.	.	.
2A-X\	7	.	.	4cc\	.	.	.	.
.	6	.	.	4dd\	.	.	.	.
=103-	=103-	=103-	=103-	=103-	=103-	=103-	=103-	=103-
!	!	!	!	!LO:N:acc=#	!	!	!	!
1.G	#n	2r	.	4bn/	.	.	.	.
.	.	.	.	4a/	.	.	.	.
.	.	2r	.	4b/	.	.	.	.
.	.	.	.	4cc\	.	.	.	.
.	.	2gg\	.	4dd\	.	.	.	.
.	.	.	.	4b/	.	.	.	.
=104-	=104-	=104-	=104-	=104-	=104-	=104-	=104-	=104-
1C	.	2.ee-X\	.	2cc\	.	.	.	.
.	.	.	.	2.gg\	.	.	.	.
.	.	4dd\	.	.	.	.	.	.
!LO:TX:t=P:problem:kreska pseudotaktowa	!	!	!	!	!	!	!	!
2A-X\	7	4cc\	.	.	.	.	.	.
.	6	4dd\	.	4ff\	.	.	.	.
=105-	=105-	=105-	=105-	=105-	=105-	=105-	=105-	=105-
!	!	!LO:N:acc=#	!	!	!	!	!	!
1.G	#n	4bn/	.	1gg	.	.	.	.
.	.	4a/	.	.	.	.	.	.
.	.	4b/	.	.	.	.	.	.
.	.	4cc\	.	.	.	.	.	.
.	.	4dd\	.	2gg\	.	.	.	.
.	.	4b\	.	.	.	.	.	.
=106-	=106-	=106-	=106-	=106-	=106-	=106-	=106-	=106-
!	!	!	!	!	!	!LO:N:vis=00	!	!
1.C	-	4cc\	.	4ee-X\	.	00.r	.	.
!	!	!LO:TX:t=P:problem:LO:SIC:s=4bny\	!	!	!	!	!	!
.	.	4bny\	.	4dd\	.	.	.	.
.	.	4cc\	.	4ee-\	.	.	.	.
.	.	4dd\	.	4ff\	.	.	.	.
.	.	4ee-X\	.	4gg\	.	.	.	.
.	.	4ff\,	.	4aany\	.	.	.	.
=107-	=107-	=107-	=107-	=107-	=107-	=107-	=107-	=107-
2.GG/	.	2.gg\	.	2.bb-X\	.	.	.	.
4AA/	.	4gg\	.	4bb-\	.	.	.	.
2BB-/	.	2gg\	.	2bb-\	.	.	.	.
=108-	=108-	=108-	=108-	=108-	=108-	=108-	=108-	=108-
2C/	.	2gg\	.	2aa\	.	.	.	.
1D	.	2.gg\	.	1aa	.	.	.	.
.	.	4ff#X\	.	.	.	.	.	.
!	!	!LO:LB:g=original	!	!	!	!	!	!
=109-	=109-	=109-	=109-	=109-	=109-	=109-	=109-	=109-
1GG	.	2gg\	.	2gg\	.	.	.	.
.	.	1gg	.	1bb-	.	.	.	.
2G\	.	.	.	.	.	.	.	.
*custos:A	*	*	*	*	*	*	*	*
!LO:LB:g=original	!	!	!	!	!	!	!	!
=110-	=110-	=110-	=110-	=110-	=110-	=110-	=110-	=110-
!	!	!	!	!	!	!LO:N:vis=00	!	!
1.A-X	.	2.ffny\	.	2.aa-X\	.	00.r	.	.
.	.	4ee-X\	.	4gg\	.	.	.	.
.	.	4ee-\	.	4gg\	.	.	.	.
.	.	4dd\	.	4ff\	.	.	.	.
=111-	=111-	=111-	=111-	=111-	=111-	=111-	=111-	=111-
1B-	.	2.dd\	.	2.ff\	.	.	.	.
!	!	!	!	!LO:SIC:v:s=8ee-\L	!	!	!	!
.	.	8cc\L	.	8eeny\L	.	.	.	.
.	.	8dd\J	.	8ff\J	.	.	.	.
!	!	!	!	!LO:LB:g=original	!	!	!	!
2G\	6	4ee-X\	.	4gg\	.	.	.	.
.	.	4dd\	.	4ff\	.	.	.	.
=112-	=112-	=112-	=112-	=112-	=112-	=112-	=112-	=112-
1A-X	.	2.cc\	.	2.ee-X\	.	.	.	.
.	.	8b-\L	.	8dd\L	.	.	.	.
.	.	8cc\J	.	8ee-\J	.	.	.	.
!LO:TX:t=P:problem:kreska pseudotaktowa	!	!	!	!	!	!	!	!
2F\	6	4dd\	.	4ff\	.	.	.	.
.	.	4cc\	.	4ee-\	.	.	.	.
=113-	=113-	=113-	=113-	=113-	=113-	=113-	=113-	=113-
!	!	!LO:N:acc=#	!	!	!	!	!	!
2G\	.	2bn/	.	2dd\	.	.	.	.
1E-X	.	2r	.	2r	.	.	.	.
.	.	2ee-X\	.	2gg\	.	.	.	.
=114-	=114-	=114-	=114-	=114-	=114-	=114-	=114-	=114-
!	!	!	!	!	!	!LO:N:vis=0	!	!
2.F\	.	1dd	.	1ff	.	0.r	.	.
4G\	.	.	.	.	.	.	.	.
2A-X\	.	2cc\	.	2ee-X\	.	.	.	.
=115-	=115-	=115-	=115-	=115-	=115-	=115-	=115-	=115-
2F\	.	1cc	.	1.dd	.	.	.	.
1G	.	.	.	.	.	.	.	.
!	!	!LO:N:acc=#	!	!	!	!	!	!
.	.	2bn/	.	.	.	.	.	.
=116-	=116-	=116-	=116-	=116-	=116-	=116-	=116-	=116-
1.C	.	1.cc	.	1.cc	.	1.r	.	.
*custos:C	*	*	*	*	*	*	*	*
!LO:PB:g=original	!	!	!	!	!	!LO:PB:g=original	!	!
=117-	=117-	=117-	=117-	=117-	=117-	=117-	=117-	=117-
*M4/4	*	*M4/4	*	*M4/4	*	*M4/4	*	*
*met(c)	*	*met(c)	*	*met(c)	*	*met(c)	*	*
*met(C)	*	*met(C)	*	*met(C)	*	*met(C)	*	*
2C/	.	00r	.	00r	.	4r	.	.
.	.	.	.	.	.	4C/	Nec	.
2AA-X/	6	.	.	.	.	4.AA-/	lin-	.
!	!	!	!	!	!	!LO:TX:t=P:problem:kreska pseudotaktowa	!	!
.	.	.	.	.	.	8AA-/	-gva	.
=118-	=118-	=118-	=118-	=118-	=118-	=118-	=118-	=118-
!LO:N:acc=#	!	!	!	!	!	!LO:N:acc=#	!	!
2En\	6 5	.	.	.	.	4.EEn/	va-	.
.	.	.	.	.	.	8FF/	-let	.
!LO:TX:t=P:problem:kreska pseudotaktowa	!	!	!	!	!	!	!	!
[2F\	.	.	.	.	.	4.FF/	di-	.
.	.	.	.	.	.	8FF/,	-ce-	.
=119-	=119-	=119-	=119-	=119-	=119-	=119-	=119-	=119-
2F\]	-	.	.	.	.	4FF/	-re	.
.	.	.	.	.	.	8r	.	.
.	.	.	.	.	.	8A-X\	nec	.
!LO:N:acc=#	!	!	!	!	!	!LO:N:acc=#	!	!
2BBn/	6 5 3	.	.	.	.	8.BBn/	li[t]-	.
.	.	.	.	.	.	16BB/	-te-	.
!	!	!	!	!	!	!LO:N:acc=#	!	!
.	.	.	.	.	.	8BBn/	-ra	.
!	!	!	!	!	!	!LO:TX:t=P:problem:kreska pseudotaktowa	!	!
.	.	.	.	.	.	8C/	ex-	.
=120-	=120-	=120-	=120-	=120-	=120-	=120-	=120-	=120-
2C/	.	.	.	.	.	8.C/	-pri-	.
.	.	.	.	.	.	16C/	-me-	.
.	.	.	.	.	.	8C/	-re	.
.	.	.	.	.	.	8BB-y/	ex-	.
4AA-X/	.	.	.	.	.	8AA-X/	-per-	.
.	.	.	.	.	.	8GG/	-t(us)	.
!LO:TX:t=P:problem:kreska pseudotaktowa	!	!	!	!	!	!	!	!
4FF/	.	.	.	.	.	8.FFny/	po-	.
.	.	.	.	.	.	16FF/	-teſt	.
*	*	*	*	*	*	*custos:GG	*	*
!	!	!	!	!	!	!LO:LB:g=original	!	!
=121-	=121-	=121-	=121-	=121-	=121-	=121-	=121-	=121-
2GG/	4	00r	.	00r	.	4.GG/	cre-	.
.	3	.	.	.	.	8GG/	-de-	.
!	!	!	!	!	!	!LO:TX:t=P:problem:kreska pseudotaktowa	!	!
[2C/	.	.	.	.	.	2C/	-re	.
=122-	=122-	=122-	=122-	=122-	=122-	=122-	=122-	=122-
2C/]	.	.	.	.	.	4r	.	.
.	.	.	.	.	.	8C/	qvid	.
.	.	.	.	.	.	8C/	ſit	.
!LO:TX:t=P:problem:kreska pseudotaktowa	!	!	!	!	!	!	!	!
2D/	6	.	.	.	.	4D/	Je-	.
.	.	.	.	.	.	8D/	-ſum	.
!	!	!	!	!	!	!LO:TX:t=P:problem:kreska pseudotaktowa	!	!
.	.	.	.	.	.	8E-X\	di-	.
=123-	=123-	=123-	=123-	=123-	=123-	=123-	=123-	=123-
!	!	!	!	!	!	!LO:TX:t=P:problem:LO:SIC:s=8.E-\	!	!
4.E-X\	.	.	.	.	.	8.E-y\	-li-	.
.	.	.	.	.	.	16E-\	-ge-	.
.	.	.	.	.	.	8E-\	-re	.
8G\	6	.	.	.	.	8G\	ex-	.
4.A-X\	5	.	.	.	.	8A-X\	-per-	.
.	.	.	.	.	.	8A-\	-t(us)	.
!	!	!	!	!	!	!LO:N:acc=#	!	!
.	.	.	.	.	.	8An\	po-	.
!LO:TX:t=P:problem:kreska pseudotaktowa	!	!	!	!	!	!	!	!
!LO:N:acc=#	!	!	!	!	!	!LO:TX:t=P:problem:kreska pseudotaktowa	!	!
8An\	6	.	.	.	.	8B-\	-teſt	.
*custos:B	*	*	*	*	*	*	*	*
!LO:LB:g=original	!	!	!	!	!	!	!	!
=124-	=124-	=124-	=124-	=124-	=124-	=124-	=124-	=124-
2B-\	.	.	.	.	.	8.B-\	cre-	.
.	.	.	.	.	.	16B-\	-de-	.
.	.	.	.	.	.	4B-\	-re	.
!LO:TX:t=P:problem:kreska pseudotaktowa	!	!	!	!	!	!	!	!
2D/	6	.	.	.	.	4r	.	.
.	.	.	.	.	.	8D/	qvid	.
.	.	.	.	.	.	8D/	ſit	.
=125-	=125-	=125-	=125-	=125-	=125-	=125-	=125-	=125-
2E-X\	.	0r	.	0r	.	2E-X\	Je-	.
!LO:N:acc=#	!	!	!	!	!	!LO:N:acc=#	!	!
2En\	6 5 3	.	.	.	.	4.En\	-ſum	.
.	.	.	.	.	.	8E\	di-	.
!	!	!	!	!	!	!LO:LB:g=original	!	!
=126-	=126-	=126-	=126-	=126-	=126-	=126-	=126-	=126-
2F\	4	.	.	.	.	4.FF/	-cre-	.
.	3	.	.	.	.	8FF/	-de-	.
!LO:TX:t=P:problem:kreska pseudotaktowa	!	!	!	!	!	!LO:TX:t=P:problem:kreska pseudotaktowa	!	!
2BB-y/	.	.	.	.	.	2BB-/	-re	.
=127-	=127-	=127-	=127-	=127-	=127-	=127-	=127-	=127-
1BB-	.	4r	.	4r	.	4r	.	.
.	.	2b-y/	.	2dd\	.	2BB-/	Je-	.
!	!	!	!	!	!	!LO:TX:t=P:problem:kreska pseudotaktowa	!	!
.	.	4b-/	.	4dd\	.	4BB-/	-ſu	.
=128-	=128-	=128-	=128-	=128-	=128-	=128-	=128-	=128-
[1F	.	4r	.	4r	.	4r	.	.
.	.	2a/	.	2cc\	.	2F\	Je-	.
!	!	!	!	!	!	!LO:TX:t=P:problem:kreska pseudotaktowa	!	!
.	.	4a/	.	4cc\	.	4F\	-su	.
!	!	!LO:LB:g=original	!	!	!	!	!	!
=129-	=129-	=129-	=129-	=129-	=129-	=129-	=129-	=129-
2F\]	.	8r	.	8r	.	8r	.	.
.	.	8a/L	.	8cc\L	.	8F\	Rex	.
.	.	8a/	.	8ff\	.	8.F\	ad-	.
.	.	8b-/J	.	8ff\J	.	.	.	.
.	.	.	.	.	.	16G\	-mi-	.
2G\	.	4.b-/	.	4.ff\	.	4.G\	-ra-	.
!	!	!	!	!	!	!LO:TX:t=P:problem:kreska pseudotaktowa	!	!
.	.	8b-/	.	8eeny\	.	8G\	-bi-	.
=130-	=130-	=130-	=130-	=130-	=130-	=130-	=130-	=130-
2F\	.	2a/	.	2ff\	.	8F\	-lis	.
.	.	.	.	.	.	8F\	ex	.
.	.	.	.	.	.	8F\	tri-	.
.	.	.	.	.	.	8F\	-um-	.
!	!	!	!	!	!	!LO:TX:a:t=P:problem:mixed beam	!	!
2BB-/	.	2r	.	2r	.	16D/LL	-pha-	.
.	.	.	.	.	.	16BB-/	.	.
.	.	.	.	.	.	16B-\	.	.
.	.	.	.	.	.	16c\JJ	.	.
.	.	.	.	.	.	16d\LL	.	.
.	.	.	.	.	.	16c\	.	.
.	.	.	.	.	.	16B-\	.	.
.	.	.	.	.	.	16A\JJ	.	.
=131-	=131-	=131-	=131-	=131-	=131-	=131-	=131-	=131-
!	!	!	!	!LO:TX:a:t=1:mod=	!	!	!	!
2E-X\	.	0r	.	1r	.	8G\L	.	.
.	.	.	.	.	.	16G\L	.	.
.	.	.	.	.	.	16A\JJ	.	.
.	.	.	.	.	.	16B-\LL	.	.
.	.	.	.	.	.	16A\	.	.
.	.	.	.	.	.	16G\	.	.
!	!	!	!	!	!	!LO:TX:t=P:problem:cutos z bemolem	!	!
.	.	.	.	.	.	16F\JJ	.	.
*	*	*	*	*	*	*custos:E	*	*
!	!	!	!	!	!	!LO:LB:g=original	!	!
4.E-\	.	.	.	.	.	16E-X\LL	.	.
.	.	.	.	.	.	16F\	.	.
.	.	.	.	.	.	16G\	.	.
.	.	.	.	.	.	16F\JJ	.	.
.	.	.	.	.	.	16E-X\LL	.	.
.	.	.	.	.	.	16F\	.	.
8D/	.	.	.	.	.	16D\	.	.
!	!	!	!	!	!	!LO:TX:t=P:problem:kreska pseudotaktowa	!	!
.	.	.	.	.	.	16E-X\JJ	.	.
!	!	!	!	!LO:LB:g=original	!	!	!	!
=132-	=132-	=132-	=132-	=132-	=132-	=132-	=132-	=132-
2C/	-	.	.	2r	.	8.C/L	.	.
.	.	.	.	.	.	16BB-/Jk	.	.
.	.	.	.	.	.	16C/LL	-tor	.
.	.	.	.	.	.	16D/	.	.
.	.	.	.	.	.	(16E-X/	.	.
.	.	.	.	.	.	16C/JJ)	.	.
!LO:TX:t=P:problem:kreska pseudotaktowa	!	!	!	!	!	!	!	!
2D/	.	.	.	8r	.	4.D/	no-	.
.	.	.	.	8dd\L	.	.	.	.
.	.	.	.	8dd\	.	.	.	.
!	!	!	!	!	!	!LO:TX:t=P:problem:kreska pseudotaktowa	!	!
.	.	.	.	8dd\J	.	8D/	-bi-	.
=133-	=133-	=133-	=133-	=133-	=133-	=133-	=133-	=133-
!	!	!	!	!LO:TX:a:t=P:problem:mixed beam	!	!	!	!
2G\	-	2r	.	16b-y/LL	.	2GG/	-lis	.
.	.	.	.	16g/	.	.	.	.
.	.	.	.	16gg\	.	.	.	.
.	.	.	.	16aany\JJ	.	.	.	.
.	.	.	.	16bb-X\LL	.	.	.	.
.	.	.	.	16aa\	.	.	.	.
.	.	.	.	16gg\	.	.	.	.
.	.	.	.	16ff\JJ	.	.	.	.
!	!	!	!	!	!	!LO:TX:t=P:problem:kreska pseudotaktowa	!	!
2C/	-	8r	.	16ee-X\LL	.	2r	.	.
.	.	.	.	16ff\	.	.	.	.
.	.	8cc\L	.	16gg\	.	.	.	.
.	.	.	.	16ff\JJ	.	.	.	.
.	.	8cc\	.	16ee-\LL	.	.	.	.
.	.	.	.	16ff\	.	.	.	.
.	.	8cc\J,	.	16dd\	.	.	.	.
.	.	.	.	16ee-\JJ	.	.	.	.
*custos:F	*	*	*	*	*	*	*	*
!LO:LB:g=original	!	!	!	!	!	!	!	!
=134-	=134-	=134-	=134-	=134-	=134-	=134-	=134-	=134-
!	!	!LO:TX:a:t=P:problem:mixed beam	!	!	!	!	!	!
2F\	#	16a/LL	.	4ff\	.	8r	.	.
.	.	16fny/	.	.	.	.	.	.
.	.	16ff\	.	.	.	8F\	ex	.
.	.	16gg\JJ	.	.	.	.	.	.
.	.	16aany\LL	.	4cc\	.	8F\	tri-	.
.	.	16gg\	.	.	.	.	.	.
.	.	16ff\	.	.	.	8F\	-um-	.
!	!	!LO:SIC:v:s=16ee-\JJ	!	!	!	!	!	!
.	.	16eeny\JJ	.	.	.	.	.	.
!LO:TX:t=P:problem:kreska pseudotaktowa	!	!	!	!	!	!	!	!
2BB-/	.	8dd\L	.	8r	.	8BB-/L	-pha-	.
.	.	16dd\L	.	8dd\L	.	16BB-/L	.	.
!	!	!LO:SIC:v:s=16ee-\JJ	!	!	!	!	!	!
.	.	16ee\JJ	.	.	.	16C/JJ	.	.
.	.	16ff\LL	.	8dd\	.	16D/LL	.	.
!	!	!LO:SIC:v:s=16ee-\	!	!	!	!	!	!
.	.	16ee\	.	.	.	16C/	.	.
.	.	16dd\	.	8dd\J	.	16BB-/	.	.
!	!	!	!	!	!	!LO:TX:t=P:problem:kreska pseudotaktowa	!	!
.	.	16cc\JJ,	.	.	.	16AAny/JJ	.	.
=135-	=135-	=135-	=135-	=135-	=135-	=135-	=135-	=135-
!	!	!	!	!	!	!LO:TX:a:t=P:problem:mixed beam	!	!
4GG/	.	4b-/	.	4gg\	.	8GG/L	.	.
.	.	.	.	.	.	16G\L	.	.
.	.	.	.	.	.	16A\JJ	.	.
4G\	.	4r	.	4r	.	16B-\LL	.	.
.	.	.	.	.	.	16A\	.	.
.	.	.	.	.	.	16G\	.	.
.	.	.	.	.	.	16F\JJ	.	.
2E-X\	.	8r	.	8r	.	4E-X\	.	.
.	.	8gg\L	.	8bb-\L	.	.	.	.
!	!	!	!	!	!	!LO:TX:t=P:problem:kreska pseudotaktowa	!	!
.	.	8gg\	.	8bb-\	.	4E-\	-tor	.
.	.	8gg\J	.	8bb-\J	.	.	.	.
!	!	!	!	!	!	!LO:LB:g=original	!	!
=136-	=136-	=136-	=136-	=136-	=136-	=136-	=136-	=136-
!LO:TX:t=P:problem:dodany bemol	!	!	!	!	!	!	!	!
1E-	.	8ee-X\L	.	8gg\L	.	8r	.	.
.	.	16ee-\L	.	16gg\L	.	8E-X\	ex	.
.	.	16ff\JJ	.	16aa\JJ	.	.	.	.
.	.	16gg\LL	.	16bb-\LL	.	8E-\	tri-	.
.	.	16ff\	.	16aa\	.	.	.	.
.	.	16ee-i\	.	16gg\	.	8E-\	-um-	.
.	.	16dd\JJ	.	16ff\JJ	.	.	.	.
.	.	8ee-i\L	.	8gg\L	.	4E-\	-pha-	.
.	.	16cc\L	.	16ee-X\L	.	.	.	.
.	.	16dd\JJ	.	16ff\JJ	.	.	.	.
!	!	!	!	!	!	!LO:TX:t=P:problem:kreska pseudotaktowa	!	!
.	.	16ee-i\LL	.	16gg\LL	.	4E-X\	-tor	.
.	.	16dd\	.	16ff\	.	.	.	.
.	.	16cc\	.	16ee-X\	.	.	.	.
.	.	16b-\JJ,	.	16dd\JJ	.	.	.	.
=137-	=137-	=137-	=137-	=137-	=137-	=137-	=137-	=137-
4F\	#	16a/LL	.	16cc\LL	.	2r	.	.
.	.	16g/	.	16b-\	.	.	.	.
.	.	16a/	.	16cc\	.	.	.	.
.	.	16b-/JJ	.	16dd\JJ	.	.	.	.
4C/	-	8cc\L	.	8ee-X\L	.	.	.	.
.	.	8cc\J	.	8ee-\J	.	.	.	.
4.G\	4	4cc\	.	16dd\LL	.	8r	.	.
.	3	.	.	16cc\	.	.	.	.
.	.	.	.	16dd\	.	8G\	ex	.
.	.	.	.	16ee-X\JJ	.	.	.	.
!	!	!LO:N:acc=x	!	!	!	!	!	!
.	.	4bn/,	.	4dd\	.	8G\	tri-	.
!LO:TX:t=P:problem:kreska pseudotaktowa	!	!	!	!	!	!LO:TX:t=P:problem:kreska pseudotaktowa	!	!
8GG/	.	.	.	.	.	8G\	-um-	.
=138-	=138-	=138-	=138-	=138-	=138-	=138-	=138-	=138-
4C/	-	2cc\	.	2ee-X\	.	16E-X\LL	-pha-	.
.	.	.	.	.	.	16C\	.	.
.	.	.	.	.	.	16c\	.	.
.	.	.	.	.	.	16B-\JJ	.	.
4CC/	.	.	.	.	.	16c\LL	.	.
.	.	.	.	.	.	16B-\	.	.
.	.	.	.	.	.	16A\	.	.
.	.	.	.	.	.	16G\JJ	.	.
!LO:TX:t=P:problem:kreska pseudotaktowa	!	!	!	!	!	!	!	!
2FF/	.	2r	.	2r	.	16F\LL	.	.
.	.	.	.	.	.	16C\	.	.
.	.	.	.	.	.	16D\	.	.
.	.	.	.	.	.	16E-\JJ	.	.
!	!	!	!	!	!	!LO:TX:a:t=P:problem:mixed beam	!	!
.	.	.	.	.	.	16F\LL	.	.
.	.	.	.	.	.	16FF/	.	.
.	.	.	.	.	.	16GG/	.	.
!	!	!	!	!	!	!LO:TX:t=P:problem:kreska pseudotaktowa	!	!
.	.	.	.	.	.	16AA/JJ	.	.
=139-	=139-	=139-	=139-	=139-	=139-	=139-	=139-	=139-
!	!	!LO:TX:a:t=1:mod=	!	!LO:TX:a:t=1:mod=	!	!	!	!
4.BB-/	.	1r	.	1r	.	16BB-/LL	.	.
.	.	.	.	.	.	16C/	.	.
.	.	.	.	.	.	16D/	.	.
.	.	.	.	.	.	16C/JJ	.	.
.	.	.	.	.	.	16BB-/LL	.	.
.	.	.	.	.	.	16C/	.	.
8AAny/	.	.	.	.	.	16AA/	.	.
.	.	.	.	.	.	16BB-/JJ	.	.
!	!	!	!	!	!	!LO:TX:a:t=P:problem:mixed beam	!	!
4GG/	.	.	.	.	.	16GG/LL	.	.
.	.	.	.	.	.	16G\	.	.
.	.	.	.	.	.	16F\	.	.
!	!	!	!	!	!	!LO:TX:t=P:problem:LO:SIC:s=16E-\JJ	!	!
.	.	.	.	.	.	16E-y\JJ	.	.
8D\L	.	.	.	.	.	8D/	.	.
!	!	!	!	!	!	!LO:TX:t=P:problem:kreska pseudotaktowa	!	!
8E-X\J	.	.	.	.	.	8E-X\	-tor	.
!	!	!LO:PB:g=original	!	!LO:PB:g=original	!	!LO:LB:g=original	!	!
=140-	=140-	=140-	=140-	=140-	=140-	=140-	=140-	=140-
2F\	4	8r	.	8r	.	4.F\	no-	.
.	3	8a/L	.	8ff\L	.	.	.	.
.	.	8a/	.	8ff\	.	.	.	.
.	.	8a/J	.	8ff\J	.	8FF/	-bi-	.
2BB-/,	.	8b-y\L	.	8dd\L	.	2BB-/	-lis	.
.	.	16dd\L	.	16b-\L	.	.	.	.
.	.	16cc\JJ	.	16cc\JJ	.	.	.	.
.	.	16b-\LL	.	16dd\LL	.	.	.	.
!	!	!	!	!LO:SIC:v:s=16ee-\	!	!	!	!
.	.	16cc\	.	16eeny\	.	.	.	.
.	.	16b-\	.	16dd\	.	.	.	.
!	!	!	!	!LO:SIC:v:s=16ee-\JJ	!	!	!	!
.	.	16cc\JJ	.	16ee\JJ	.	.	.	.
!LO:LB:g=original	!	!	!	!	!	!	!	!
=141-	=141-	=141-	=141-	=141-	=141-	=141-	=141-	=141-
2BB-/	.	8dd\L	.	8ff\L	.	1r	.	.
.	.	16b-\L	.	16dd\L	.	.	.	.
!	!	!	!	!LO:SIC:v:s=16ee-\JJ	!	!	!	!
.	.	16cc\JJ	.	16ee\JJ	.	.	.	.
.	.	16dd\LL	.	16ff\LL	.	.	.	.
!	!	!LO:SIC:v:s=16ee-\	!	!	!	!	!	!
.	.	16eeny\	.	16gg\	.	.	.	.
.	.	16dd\	.	16ff\	.	.	.	.
!	!	!LO:SIC:v:s=16ee-\JJ	!	!	!	!	!	!
.	.	16ee\JJ	.	16gg\JJ	.	.	.	.
8FF/L	-	8ff\L	.	8aa-X\L	.	.	.	.
8BB-/J	.	8ff\J	.	8gg\J	.	.	.	.
4C/	.	8.ff\L	.	4gg\	.	.	.	.
.	.	16ee\Jk	.	.	.	.	.	.
=142-	=142-	=142-	=142-	=142-	=142-	=142-	=142-	=142-
2FF/	.	4ff\	.	4ff\	.	8r	.	.
.	.	.	.	.	.	8F\	ex	.
.	.	4r	.	4r	.	8F\	tri-	.
.	.	.	.	.	.	8F\	-um-	.
!LO:TX:t=P:problem:kreska pseudotaktowa	!	!	!	!	!	!LO:TX:a:t=P:problem:mixed beam	!	!
2BB-/	.	2r	.	2r	.	16D/LL	-pha-	.
.	.	.	.	.	.	16BB-/	.	.
.	.	.	.	.	.	16B-\	.	.
.	.	.	.	.	.	16c\JJ	.	.
.	.	.	.	.	.	16d\LL	.	.
.	.	.	.	.	.	16c\	.	.
.	.	.	.	.	.	16B-\	.	.
.	.	.	.	.	.	16A\JJ	.	.
=143-	=143-	=143-	=143-	=143-	=143-	=143-	=143-	=143-
!	!	!	!	!LO:TX:a:t=1:mod=	!	!	!	!
2E-X\	.	0r	.	1r	.	8G\L	.	.
.	.	.	.	.	.	16G\L	.	.
.	.	.	.	.	.	16A\JJ	.	.
.	.	.	.	.	.	16B-\LL	.	.
.	.	.	.	.	.	16A\	.	.
.	.	.	.	.	.	16G\	.	.
.	.	.	.	.	.	16F\JJ	.	.
4.E-\	.	.	.	.	.	8E-X\L	.	.
.	.	.	.	.	.	16E-\L	.	.
.	.	.	.	.	.	16F\JJ	.	.
.	.	.	.	.	.	16G\LL	.	.
.	.	.	.	.	.	16F\	.	.
8D/	.	.	.	.	.	16E-X\	.	.
!	!	!	!	!	!	!LO:TX:t=P:problem:kreska pseudotaktowa	!	!
.	.	.	.	.	.	16D\JJ	.	.
=144-	=144-	=144-	=144-	=144-	=144-	=144-	=144-	=144-
2C/	-	.	.	2r	.	8C/L	.	.
.	.	.	.	.	.	16C/L	.	.
.	.	.	.	.	.	16BB-/JJ	.	.
.	.	.	.	.	.	16C/LL	.	.
.	.	.	.	.	.	16D/	.	.
.	.	.	.	.	.	(16E-X/	-tor	.
.	.	.	.	.	.	16C/JJ)	.	.
!LO:TX:t=P:problem:kreska pseudotaktowa	!	!	!	!	!	!	!	!
2D/	.	.	.	8r	.	4.D/	no-	.
.	.	.	.	8dd\L	.	.	.	.
.	.	.	.	8dd\	.	.	.	.
!	!	!	!	!	!	!LO:TX:t=P:problem:kreska pseudotaktowa	!	!
.	.	.	.	8dd\J	.	8D/	-bi-	.
*	*	*	*	*	*	*custos:GG	*	*
!	!	!	!	!	!	!LO:LB:g=original	!	!
=145-	=145-	=145-	=145-	=145-	=145-	=145-	=145-	=145-
!	!	!	!	!LO:TX:a:t=P:problem:mixed beam	!	!	!	!
2G\	-	2r	.	16b-/LL	.	2GG/	-lis	.
.	.	.	.	16g/	.	.	.	.
.	.	.	.	16gg\	.	.	.	.
.	.	.	.	16aany\JJ	.	.	.	.
.	.	.	.	16bb-X\LL	.	.	.	.
.	.	.	.	16aa\	.	.	.	.
.	.	.	.	16gg\	.	.	.	.
.	.	.	.	16ff\JJ	.	.	.	.
2C/	-	8r	.	16ee-X\LL	.	2r	.	.
.	.	.	.	16ff\	.	.	.	.
.	.	8cc\L	.	16gg\	.	.	.	.
.	.	.	.	16ff\JJ	.	.	.	.
.	.	8cc\	.	16ee-X\LL	.	.	.	.
.	.	.	.	16ff\	.	.	.	.
.	.	8cc\J	.	16dd\	.	.	.	.
.	.	.	.	16ee-\JJ	.	.	.	.
!	!	!	!	!LO:LB:g=original	!	!	!	!
=146-	=146-	=146-	=146-	=146-	=146-	=146-	=146-	=146-
!	!	!LO:TX:a:t=P:problem:mixed beam	!	!	!	!	!	!
2F\	#	16a/LL	.	4ff\	.	8r	.	.
.	.	16f/	.	.	.	.	.	.
.	.	16ff\	.	.	.	8F\	ex	.
.	.	16gg\JJ	.	.	.	.	.	.
.	.	16aa\LL	.	4cc\	.	8F\	tri-	.
.	.	16gg\	.	.	.	.	.	.
.	.	16ff\	.	.	.	8F\	-um-	.
!	!	!LO:SIC:v:s=16ee-\JJ	!	!	!	!	!	!
.	.	16ee\JJ	.	.	.	.	.	.
!LO:TX:t=P:problem:kreska pseudotaktowa	!	!	!	!	!	!	!	!
2BB-/	.	8dd\L	.	8r	.	8BB-/L	-pha-	.
.	.	16dd\L	.	8dd\L	.	16BB-/L	.	.
!	!	!LO:SIC:v:s=16ee-\JJ	!	!	!	!	!	!
.	.	16ee\JJ	.	.	.	16C/JJ	.	.
.	.	16ff\LL	.	8dd\	.	16D/LL	.	.
!	!	!LO:SIC:v:s=16ee-\	!	!	!	!	!	!
.	.	16ee\	.	.	.	16C/	.	.
.	.	16dd\	.	8dd\J	.	16BB-/	.	.
!	!	!	!	!	!	!LO:TX:t=P:problem:kreska pseudotaktowa	!	!
.	.	16cc\JJ	.	.	.	16AA/JJ	.	.
!	!	!LO:LB:g=original	!	!	!	!	!	!
=147-	=147-	=147-	=147-	=147-	=147-	=147-	=147-	=147-
!	!	!	!	!	!	!LO:TX:a:t=P:problem:mixed beam	!	!
4GG/	.	4b-/	.	4gg\	.	8GG/L	.	.
.	.	.	.	.	.	16G\L	.	.
.	.	.	.	.	.	16A\JJ	.	.
4G\	.	4r	.	4r	.	16B-\LL	.	.
.	.	.	.	.	.	16A\	.	.
.	.	.	.	.	.	16G\	.	.
.	.	.	.	.	.	16F\JJ	.	.
2E-X\	.	8r	.	8r	.	4E-X\	.	.
.	.	8gg\L	.	8bb-\L	.	.	.	.
.	.	8gg\	.	8bb-\	.	4E-\	-tor	.
.	.	8gg\J	.	8bb-\J	.	.	.	.
=148-	=148-	=148-	=148-	=148-	=148-	=148-	=148-	=148-
!LO:TX:t=P:problem:kreska pseudotaktowa	!	!	!	!	!	!	!	!
1E-X	.	8ee-X\L	.	8gg\L	.	2r	.	.
.	.	16ee-\L	.	16gg\L	.	.	.	.
.	.	16ff\JJ	.	16aa\JJ	.	.	.	.
.	.	16gg\LL	.	16bb-\LL	.	.	.	.
.	.	16ff\	.	16aa\	.	.	.	.
.	.	16ee-\	.	16gg\	.	.	.	.
.	.	16dd\JJ	.	16ff\JJ	.	.	.	.
.	.	8ee-X\L	.	8gg\L	.	8r	.	.
!	!	!	!	!LO:SIC:v:s=16ee-\L	!	!	!	!
.	.	16cc\L	.	16eeny\L	.	8E-X\	ex	.
.	.	16dd\JJ	.	16ff\JJ	.	.	.	.
.	.	16ee-X\LL	.	16gg\LL	.	8E-\	tri-	.
.	.	16dd\	.	16ff\	.	.	.	.
!	!	!	!	!LO:SIC:v:s=16ee-\	!	!LO:TX:t=P:problem:kreska pseudotaktowa	!	!
.	.	16cc\	.	16ee\	.	8E-\	-um-	.
.	.	16b-\JJ	.	16dd\JJ	.	.	.	.
*custos:F	*	*	*	*	*	*	*	*
!LO:LB:g=original	!	!	!	!	!	!	!	!
=149-	=149-	=149-	=149-	=149-	=149-	=149-	=149-	=149-
4F\	#	16a/LL	.	8cc\L	.	4F\	-pha-	.
.	.	16g/	.	.	.	.	.	.
.	.	16a/	.	8ff\J	.	.	.	.
.	.	16b-/JJ	.	.	.	.	.	.
4AA/	6	8cc/L	.	2ff\	.	(8AA/L	-tor	.
.	.	16b-/L	.	.	.	8BB-/J)	.	.
.	.	16a/JJ	.	.	.	.	.	.
2C/	4	8g/L	.	.	.	4.C/	no-	.
.	3	8cc/	.	.	.	.	.	.
.	.	8cc/	.	4ee\	.	.	.	.
!	!	!	!	!	!	!LO:TX:t=P:problem:kreska pseudotaktowa	!	!
.	.	8cc/J	.	.	.	8C/	-bi-	.
=150-	=150-	=150-	=150-	=150-	=150-	=150-	=150-	=150-
!	!	!LO:TX:a:t=P:problem:mixed beam	!	!	!	!	!	!
2F\	.	16a/LL	.	4ff\	.	2FF/	-lis.	.
.	.	16f/	.	.	.	.	.	.
.	.	16ff\	.	.	.	.	.	.
.	.	16gg\JJ	.	.	.	.	.	.
.	.	16ff\LL	.	4r	.	.	.	.
!	!	!LO:SIC:v:s=16ee-\	!	!	!	!	!	!
.	.	16eeny\	.	.	.	.	.	.
.	.	16dd\	.	.	.	.	.	.
.	.	16cc\JJ	.	.	.	.	.	.
!	!	!LO:LB:g=original	!	!	!	!	!	!
2BB-/	.	16dd\LL	.	8r	.	2r	.	.
.	.	16cc\	.	.	.	.	.	.
.	.	16dd\	.	8bb-\L	.	.	.	.
!	!	!LO:SIC:v:s=16ee-\JJ	!	!	!	!	!	!
.	.	16ee\JJ	.	.	.	.	.	.
!	!	!LO:SIC:v:s=16ff\LL	!	!	!	!	!	!
.	.	16ff-X\LL	.	8bb-\	.	.	.	.
.	.	16ee-X\	.	.	.	.	.	.
.	.	16cc\	.	8bb-\J	.	.	.	.
.	.	16dd\JJ	.	.	.	.	.	.
=151-	=151-	=151-	=151-	=151-	=151-	=151-	=151-	=151-
2E-X\	.	16ee-X\LL	.	16gg\LL	.	1r	.	.
.	.	16cc\	.	16ee-X\	.	.	.	.
!	!	!LO:TX:a:t=e:mod=	!	!	!	!	!	!
!	!	!LO:SIC:v:s=16ee-\	!	!	!	!	!	!
.	.	16dd\	.	16gg\	.	.	.	.
!	!	!	!	!LO:SIC:v:s=16aa-\JJ	!	!	!	!
.	.	16ffny\JJ	.	16aa\JJ	.	.	.	.
.	.	16ee-X\LL	.	16gg\LL	.	.	.	.
.	.	16dd\	.	16ff\	.	.	.	.
.	.	16cc\	.	16ee-X\	.	.	.	.
.	.	16b-\JJ	.	16dd\JJ	.	.	.	.
!	!	!	!	!LO:LB:g=original	!	!	!	!
2F\	#n	16a/LL	.	8cc\	.	.	.	.
.	.	16g/	.	.	.	.	.	.
.	.	16a/	.	4ff\	.	.	.	.
!	!	!LO:SIC:v:s=16bn/JJ	!	!	!	!	!	!
.	.	16b-/JJ	.	.	.	.	.	.
.	.	[4cc\	.	.	.	.	.	.
.	.	.	.	8ee-X\	.	.	.	.
!	!	!	!	!	!	!LO:LB:g=original	!	!
=152-	=152-	=152-	=152-	=152-	=152-	=152-	=152-	=152-
2G\	4	4cc\]	.	4.dd\	.	8r	.	.
.	3	.	.	.	.	8G\	ex	.
!	!	!LO:N:acc=#	!	!	!	!	!	!
.	.	4bn/	.	.	.	8G\	tri-	.
.	.	.	.	8dd\	.	8G\	-um-	.
!LO:TX:t=P:problem:kreska pseudotaktowa	!	!	!	!	!	!	!	!
2C/	.	4cc\	.	8ee-X\L	.	16E-X\LL	-pha-	.
.	.	.	.	.	.	16C\	.	.
.	.	.	.	8cc\	.	16c\	.	.
.	.	.	.	.	.	16d\JJ	.	.
.	.	4r	.	8cc\	.	16c\LL	.	.
.	.	.	.	.	.	16B-\	.	.
.	.	.	.	8cc\J	.	16A\	.	.
!	!	!	!	!	!	!LO:TX:t=P:problem:kreska pseudotaktowa	!	!
.	.	.	.	.	.	16G\JJ	.	.
=153-	=153-	=153-	=153-	=153-	=153-	=153-	=153-	=153-
!	!	!	!	!LO:TX:a:t=P:problem:mixed beam	!	!	!	!
2F\	#	8r	.	8a/L	.	8F\L	.	.
.	.	8a/L	.	16aa\L	.	16F\L	.	.
.	.	.	.	16bb-\JJ	.	16G\JJ	.	.
.	.	8a/	.	16aa\LL	.	16F\LL	.	.
!	!	!	!	!	!	!LO:SIC:v:s=16E-\	!	!
.	.	.	.	16gg\	.	16Eny\	.	.
.	.	8a/J	.	16ff\	.	16D\	.	.
!	!	!	!	!LO:SIC:v:s=16ee-\JJ	!	!	!	!
.	.	.	.	16eeny\JJ	.	16C\JJ	.	.
4BB-/	.	16b-X\LL	.	16dd\LL	.	4BB-/	.	.
!	!	!	!	!LO:SIC:v:s=16ee-\	!	!	!	!
.	.	16cc\	.	16ee\	.	.	.	.
.	.	16dd\	.	16ff\	.	.	.	.
.	.	16ff\JJ	.	16dd\JJ	.	.	.	.
!	!	!	!	!LO:SIC:v:s=16ee-\LL	!	!	!	!
4C/	-	16ee-X\LL	.	16ee\LL	.	16C/LL	-tor	.
.	.	16dd\	.	16ff\J	.	16D/	.	.
!	!	!	!	!LO:TX:t=P:problem:wykreślony fragment	!	!	!	!
.	.	16cc\	.	8gg\J	.	(16E-X/	.	.
!	!	!	!	!	!	!LO:TX:t=P:problem:kreska pseudotaktowa	!	!
.	.	16b-\JJ	.	.	.	16C/JJ)	.	.
=154-	=154-	=154-	=154-	=154-	=154-	=154-	=154-	=154-
2D\	#3r	2a/	.	16ff#\L	.	4.D/	no-	.
.	4	.	.	16dd\J	.	.	.	.
.	.	.	.	4gg\	.	.	.	.
.	3	.	.	8ff#X\	.	8D/	-bi-	.
4G\	.	4b-/	.	8gg\L	.	4G\	-lis	.
.	.	.	.	8aa\J	.	.	.	.
4E-X\	.	4gg\	.	4bb-\	.	8r	.	.
.	.	.	.	.	.	8Eny\	ex	.
=155-	=155-	=155-	=155-	=155-	=155-	=155-	=155-	=155-
4.F\	-	4.ff\	.	4.aa-X\	.	4.F\	tri-	.
8G\	.	8ee-X\	.	8gg\	.	8G\	-um-	.
!	!	!LO:LB:g=original	!	!	!	!	!	!
4A-X\	6 4	8dd\L	.	4.ffny\	.	4A-X\	-pha-	.
.	x 3	8cc\J	.	.	.	.	.	.
4F\	.	4cc\	.	.	.	4F\	-tor	.
.	.	.	.	8ee-X\	.	.	.	.
!	!	!	!	!LO:LB:g=original	!	!	!	!
=156-	=156-	=156-	=156-	=156-	=156-	=156-	=156-	=156-
!LO:TX:t=P:problem:kreska pseudotaktowa	!	!LO:N:acc=#	!	!	!	!	!	!
1G	#n 3	4bn/	.	2.dd\	.	2.G\	no-	.
.	X 4	2cc\	.	.	.	.	.	.
!	!	!LO:N:acc=#	!	!	!	!	!	!
.	#n 3	4bn/	.	4dd\	.	4GG/	-bi-	.
*custos:C	*	*	*	*	*	*custos:C	*	*
!LO:LB:g=original	!	!	!	!	!	!LO:LB:g=original	!	!
=157-	=157-	=157-	=157-	=157-	=157-	=157-	=157-	=157-
4C/	.	[1cc	.	1ee-X	.	2C/	-lis	.
8c\L	.	.	.	.	.	.	.	.
8B-\J	.	.	.	.	.	.	.	.
4.A-X\	.	.	.	.	.	2r	.	.
8G\	.	.	.	.	.	.	.	.
=158-	=158-	=158-	=158-	=158-	=158-	=158-	=158-	=158-
8F\L	6 5	2cc\_	.	2.dd\	.	0r	.	.
8G\	.	.	.	.	.	.	.	.
8A-X\	.	.	.	.	.	.	.	.
8F\J	.	.	.	.	.	.	.	.
4G\	4	4cc\]	.	.	.	.	.	.
.	3	.	.	.	.	.	.	.
!LO:TX:t=P:problem:kreska pseudotaktowa	!	!LO:N:acc=#	!	!	!	!	!	!
4GG/	.	4bn/	.	4dd\	.	.	.	.
=159-	=159-	=159-	=159-	=159-	=159-	=159-	=159-	=159-
4.C/	-	2cc\	.	1ee-X	.	.	.	.
8BB-/	.	.	.	.	.	.	.	.
!	!	!	!LO:DY:a	!	!	!	!	!
4.AA-X/	.	2cc\	p	.	.	.	.	.
8GG/	.	.	.	.	.	.	.	.
=160-	=160-	=160-	=160-	=160-	=160-	=160-	=160-	=160-
8FF/L	6 5	2.cc\	.	2.dd\	.	1r	.	.
8GG/	.	.	.	.	.	.	.	.
8AA-X/	.	.	.	.	.	.	.	.
8FF/J	.	.	.	.	.	.	.	.
!LO:TX:t=P:problem:kreska pseudotaktowa	!	!	!	!	!	!	!	!
2GG/	.	.	.	.	.	.	.	.
!	!	!LO:N:acc=#	!	!	!	!	!	!
.	.	4bn/	.	4dd\	.	.	.	.
=161-	=161-	=161-	=161-	=161-	=161-	=161-	=161-	=161-
!LO:TX:t=P:problem:custos z bemolem	!	!	!	!	!	!	!	!
2C/	4	2cc\	.	2ee-X\	.	4r	.	.
.	3	.	.	.	.	4c\	Dul-	.
*custos:A	*	*	*	*	*	*	*	*
!LO:LB:g=original	!	!	!	!	!	!	!	!
4A-X\	.	4r	.	2r	.	4A-X\	-ce-	.
!	!	!	!	!	!	!LO:N:acc=#	!	!
!LO:N:acc=#	!	!	!	!	!	!LO:TX:t=P:problem:kreska pseudotaktowa	!	!
4En\	6	4cc\	.	.	.	4En\	-do	.
=162-	=162-	=162-	=162-	=162-	=162-	=162-	=162-	=162-
2F\	-	4a-X/	.	2r	.	4.F\	in-	.
.	.	4f/	.	.	.	.	.	.
.	.	.	.	.	.	8F\	-ef-	.
!LO:TX:t=P:problem:kreska pseudotaktowa	!	!	!	!	!	!	!	!
!LO:N:acc=#	!	!LO:TX:b:t=d:mod=	!	!	!	!LO:N:acc=#	!	!
2BBn/	6 5 3	2d/	.	4r	.	4.BBn/	-fa-	.
.	.	.	.	4gg\	.	.	.	.
!	!	!	!	!	!	!LO:TX:t=P:problem:kreska pseudotaktowa	!	!
.	.	.	.	.	.	8C/	-bi-	.
=163-	=163-	=163-	=163-	=163-	=163-	=163-	=163-	=163-
4C/	-	4r	.	4ee-X\	.	4C/	-lis	.
!	!	!	!	!LO:N:acc=#	!	!	!	!
4D/	#n 6	4ff\	.	4bn/	.	4r	.	.
4C/	-	4ee-X\	.	4.cc\	.	4r	.	.
4A-X\	- #	2cc\	.	.	.	(8A-X\L	dul-	.
!	!	!	!	!	!	!LO:TX:t=P:problem:kreska pseudotaktowa	!	!
.	.	.	.	8dd\	.	8G\J)	.	.
=164-	=164-	=164-	=164-	=164-	=164-	=164-	=164-	=164-
[2G\	6 3	.	.	4.ee-X\	.	4G\	-ce-	.
!	!	!LO:N:acc=#	!	!	!	!	!	!
.	5	4bn/	.	.	.	4G\	-do	.
.	.	.	.	8dd\	.	.	.	.
2G\]	X 4	4b/	.	4.dd\	.	4r	.	.
.	.	2gg\	.	.	.	4G\	dul-	.
!	!	!	!	!LO:N:acc=#	!	!	!	!
.	#n 3	.	.	8bn/	.	.	.	.
=165-	=165-	=165-	=165-	=165-	=165-	=165-	=165-	=165-
4E-X\	.	.	.	2cc\	.	4E-X\	-ce-	.
4C/	.	4ee-X\	.	.	.	4C/	-do	.
!	!	!	!	!	!	!LO:TX:t=P:problem:kreska pseudotaktowa	!	!
2AA-X/	.	[2cc\	.	4r	.	[2AA-X/	in-	.
.	.	.	.	4ccc\	.	.	.	.
!	!	!	!	!	!	!LO:LB:g=original	!	!
=166-	=166-	=166-	=166-	=166-	=166-	=166-	=166-	=166-
2AA-X/	- 6	2cc\]	.	4aa-X\	.	4AA-/]	.	.
.	.	.	.	4ff\	.	4AA-X/	-ef-	.
*custos:BB	*	*	*	*	*	*	*	*
!LO:LB:g=original	!	!LO:LB:g=original	!	!LO:TX:t=P:problem:pod nutą oznaczenie poprawki (?)	!	!	!	!
[2BB-y/	.	4r	.	[2dd\	.	4.BB-y/	-fa-	.
.	.	4b-y/	.	.	.	.	.	.
!	!	!	!	!	!	!LO:TX:t=P:problem:kreska pseudotaktowa	!	!
.	.	.	.	.	.	8BB-/	-bi-	.
=167-	=167-	=167-	=167-	=167-	=167-	=167-	=167-	=167-
2BB-/]	6	4g/	.	4dd\]	.	2BB-/	-lis	.
.	3	4d/	.	4dd\	.	.	.	.
*	*	*	*	*custos:g	*	*	*	*
!	!	!	!	!LO:LB:g=original	!	!	!	!
2C/	5 3	4e/	.	4g/	.	4r	.	.
.	6 4	[4f/	.	4a-X/	.	8C/	in-	.
!	!	!	!	!	!	!LO:TX:t=P:problem:kreska pseudotaktowa	!	!
.	.	.	.	.	.	8C/	-ef-	.
=168-	=168-	=168-	=168-	=168-	=168-	=168-	=168-	=168-
2C/	6 4	4f/]	.	2g/	.	4.C/	-fa-	.
.	X 3	4e/	.	.	.	.	.	.
.	.	.	.	.	.	8C/	-bi-	.
!	!	!	!	!LO:TX:t=P:problem:dodany bemol	!	!LO:TX:t=P:problem:kreska pseudotaktowa	!	!
2FF/	#	4.f/	.	2a-/	.	2FF/	-lis	.
.	.	8g/	.	.	.	.	.	.
=169-	=169-	=169-	=169-	=169-	=169-	=169-	=169-	=169-
1FF	#	2.any/	.	[1ff	.	2FF/	dul-	.
.	.	.	.	.	.	4FF/	-ce-	.
!	!	!	!	!	!	!LO:TX:t=P:problem:kreska pseudotaktowa	!	!
.	.	4a/	.	.	.	4FF/	-do	.
=170-	=170-	=170-	=170-	=170-	=170-	=170-	=170-	=170-
!	!	!LO:N:acc=#	!	!	!	!	!	!
1GG	X 7 #n 3	2bn/	.	2ff\]	.	2.GG/	in-	.
.	- 6 X 4	2cc\	.	2ee-X\	.	.	.	.
.	.	.	.	.	.	4GG/	-ef-	.
=171-	=171-	=171-	=171-	=171-	=171-	=171-	=171-	=171-
1GG	5 4	2cc\	.	1dd	.	2.GG/	-fa-	.
!	!	!LO:N:acc=#	!	!	!	!	!	!
.	#n 3	2bn/	.	.	.	.	.	.
!	!	!	!	!	!	!LO:TX:t=P:problem:kreska pseudotaktowa	!	!
.	.	.	.	.	.	4GG/	-bi-	.
=172-	=172-	=172-	=172-	=172-	=172-	=172-	=172-	=172-
00C;;	.	00cc;;	.	00ee-;;	.	00C;;	-lis.	.
==	==	==	==	==	==	==	==	==
*-	*-	*-	*-	*-	*-	*-	*-	*-
!!!system-decoration: [s1][(g1)]s4
!!!RDF**kern: > = above
!!!RDF**kern: < = below
!!!RDF**kern: i = editorial accidental
!!!ENC: Berenika Jozajtis
!!!END: 2022-06-09
!!!ENC: Katarzyna Serwa
!!!END: 2022-11-09
